!!!!SEGMENT: sonata29-1.krn
!!!COM: Beethoven, Ludwig van
!!!CDT: 1770///-1827///
!!!OTL: Piano Sonata no. 29 in B-flat major
!!!OTP: hammerklavier
!!!OPS: 106
!!!OMV: 1
!!!OMD: Allegro. [quarter] = 138
!!!AGN: Sonata Form
**kern	**kern	**dynam
*staff2	*staff1	*staff1/2
*Ipiano	*Ipiano	*Ipiano
*>[A,A,B]	*>[A,A,B]	*>[A,A,B]
*>norep[A,B]	*>norep[A,B]	*>norep[A,B]
*>A	*>A	*>A
*clefF4	*clefG2	*
*kcancel	*kcancel	*
*k[b-e-]	*k[b-e-]	*
*B-:	*B-:	*
*M2/2	*M2/2	*
*MM138	*MM138	*
=	=	=
*ped	*	*
!	!	!LO:DY:rj:b=2
8BBB-	8r	ff
=1	=1	=1
4.Fz 4.B-z 4.dz	4r	.
.	8r	.
!	!	!LO:DY:rj:b
8F 8B- 8d	8dd 8ff 8bb- 8ddd	ff
4F' 4B-' 4d'	4dd' 4ff' 4bb-' 4ddd'	.
8F' 8B-' 8d'L	8dd' 8ff' 8bb-' 8eee-'L	.
8F' 8B-' 8d'J	8dd' 8ff' 8bb-' 8ddd'J	.
=2	=2	=2
4F' 4B-' 4d'	4dd' 4ff' 4bb-' 4ddd'	.
4D' 4F' 4B-'	4b-' 4dd' 4ff' 4bb-'	.
4r	2r	.
8r	.	.
8BBB-	.	.
=3	=3	=3
4.F 4.B- 4.d 4.f	4r	.
.	8r	.
8F 8B- 8d 8f	8ff 8bb- 8ddd 8fff	.
4F' 4B-' 4d' 4f'	4ff' 4bb-' 4ddd' 4fff'	.
8F' 8B-' 8d' 8f'L	8ff' 8bb-' 8ddd' 8ggg'L	.
8F' 8B-' 8d' 8f'J	8ff' 8bb-' 8ddd' 8fff'J	.
=4	=4	=4
4F' 4B-' 4d' 4f'	4ff' 4bb-' 4ddd' 4fff'	.
4F' 4B-' 4d'	4dd' 4ff' 4bb-' 4ddd'	.
*Xped	*	*
4r;	4r;	.
4r	(>8b-L>	p
.	8ccJ	.
=5	=5	=5
*	*^	*
4r	2dd	4rc	.
(4en	.	4g	.
4f	4cc)	4a	.
4Bn	(8ccL	4a-	.
.	8ddJ	.	.
!!LO:LB:g=original
=6	=6	=6	=6
4c	2ee-	4g	.
4F#	.	4an	.
4G	4dd)	4b-	.
4E-	(8ddL	4g	.
.	8ee-J	.	.
=7	=7	=7	=7
4D	4.ff	4f	.
4D-	.	4b-	.
.	8gg	.	.
4C	8ff	4g	.
.	4ee-	.	.
4FF)	.	4a	.
.	8ff	.	.
=8	=8	=8	=8
!	!LO:TX:a:B:t=Ritard.	!	!
(4BB-	8ee-L	4f 4b-	.
.	8dd	.	.
4EE-	8ff	4g 4cc	>
.	8ee-J	.	]
4FF;)	4cc;)	4a;	.
*	*8va	*8va	*
!	!LO:TX:a:B:t=a Tempo	!	!
4rc	(8bb-L	4r	p
.	8cccJ	.	.
*clefG2	*	*	*
=9	=9	=9	=9
!	!	!	!LO:DY:b=2:t=%s sempre legato
4r	2ddd	4ree	p
4een	.	4gg	>
*	*v	*v	*
*	*^	*
4ff	4ccc)	4aa	]
4bn	(8cccL	4aa-	.
.	8dddJ	.	.
=10	=10	=10	=10
4cc	2eee-	4gg	.
4f#	.	4aan	.
4g	4ddd)	4bb-	.
4e-	(8dddL	4gg	.
.	8eee-J	.	.
*clefF4	*	*	*
=11	=11	=11	=11
4d	4.fff	4ff	.
!	!	!	!LO:HP:t=cresc. poco a poco
4d-	.	4bb-	<
.	8ggg	.	.
4c	8fff	4gg	.
.	4eee-	.	.
4F	.	4aa	.
.	8fff	.	.
!!LO:LB:g=original
=12	=12	=12	=12
4B-	8eee-	4ff	.
.	4ddd)	.	.
4G-	.	[4bb-	.
.	8eee-	.	.
4F	(8dddL	4bb-]	.
.	8ccc	.	.
4E-	8ddd	4ff 4aa	.
.	8eee-J	.	.
=13	=13	=13	=13
4D	8gggL	4ff 4bb-	.
.	8fff	.	.
4D-	8ggg	4bb-	.
.	8fffJ	.	.
4C	8fffL	4gg	.
.	8eee-	.	.
4FF	8fff	4aa	.
.	8eee-J	.	.
=14	=14	=14	=14
4BB-	8eee-L	4ff	.
.	8ddd	.	.
4GG-	8eee-	2bb-	.
.	8dddJ)	.	.
4FF	(8dddL	.	.
.	8ccc	.	.
4EE-	8ddd	4ff 4aa	.
.	8eee-J)	.	.
=15	=15	=15	=15
4DD	(8gggL	4ff 4bb-	.
.	8fffJ)	.	.
4DD-	8r	4bb- 4eeen	.
.	[8ggg	.	.
4CC	(8ggg]	4eee-	.
.	4aaa-	.	.
4FFF#	.	4ccc 4eee-	.
.	8aaan)	.	.
=16	=16	=16	=16
4GGG	(8ccccL	4bb- 4ddd	f
.	8bbb-	.	.
4EE-	8aaa	4bb- 4eee-	.
.	8gggJ)	.	.
4FF'	4fff'	4bb- 4ddd	.
4FFF 4FF	4fff' 4aaa'	4aa 4ccc	.
*	*v	*v	*
!!LO:LB:g=original
=17	=17	=17
*ped	*	*
8BBB- 8BB-	2bb- 2ddd 2fff 2bbb-	f
*	*X8va	*
8F 8B- 8dL	.	.
8F 8B- 8d	.	.
8F 8B- 8dJ	.	.
8r	2b-z 2ddz 2bb-z	.
8D 8F 8B-L	.	.
8D 8F 8B-	.	.
8D 8F 8B-J	.	.
=18	=18	=18
*Xped	*	*
8r	4dd' 4ff' 4ddd'	p
8F 8B- 8dL	.	.
8r	4b-' 4dd' 4bb-'	.
8D 8F 8B-J	.	.
8r	4dd' 4ff' 4ddd'	.
8F 8B- 8dL	.	.
8r	4cc' 4ee-' 4ccc'	.
8E- 8B- 8cJ	.	.
=19	=19	=19
*ped	*	*
8BBB- 8BB-	2ee- 2gg 2eee-	f
8G 8B- 8e-L	.	.
8G 8B- 8e-	.	.
8G 8B- 8e-J	.	.
8r	2cc'z 2ee-'z 2ccc'z	.
8E- 8B- 8cL	.	.
8E- 8B- 8c	.	.
8E- 8B- 8cJ	.	.
=20	=20	=20
*Xped	*	*
8r	4ee-' 4gg' 4eee-'	p
8G 8B- 8e-L	.	.
8r	4cc#' 4een' 4ccc#'	.
8En 8B- 8c#J	.	.
8r	4ee-' 4gg-' 4eee-X'	.
8G- 8B- 8e-XL	.	.
8r	4dd' 4ff' 4ddd'	.
8F 8B- 8dJ	.	.
=21	=21	=21
*ped	*	*
8BBB- 8BB-	2ff 2aa- 2fff	f
8A- 8B- 8fL	.	.
8A- 8B- 8f	.	.
8A- 8B- 8fJ	.	.
8r	2ddz 2ffz 2dddz	.
8F 8B- 8dL	.	.
8F 8B- 8d	.	.
8F 8B- 8dJ	.	.
!!LO:LB:g=original
=22	=22	=22
*	*8va	*
8r	4ff' 4aa-' 4fff'	p
8A- 8B- 8fL	.	.
8r	4dd'\ 4ff#'\ 4ddd'\	.
8F# 8B- 8dJ	.	.
8r	4ffn' 4aa-' 4fffn'	.
8A- 8B- 8fnL	.	.
8r	4ee-'\ 4gg'\ 4eee-'\	.
8G 8B- 8e-J	.	.
=23	=23	=23
*ped	*	*
8BBB- 8BB-	2gg 2bb- 2ggg	f
*clefG2	*	*
8B- 8e- 8gL	.	.
8B- 8e- 8g	.	.
8B- 8e- 8gJ	.	.
*clefF4	*	*
8r	2ee-\ 2gg\ 2bb-\ 2eee-\	sf
8G 8B- 8e-L	.	.
8G 8B- 8e-	.	.
8G 8B- 8e-J	.	.
*clefG2	*	*
=24	=24	=24
8r	4gg' 4bb-' 4ggg'	p
8B- 8e- 8gL	.	<
8r	4een'\ 4bb-'\ 4eeen'\	.
8B- 8c# 8enJ	.	.
8r	4gg-' 4bb-' 4ggg-'	.
8B- 8e- 8g-L	.	.
8r	4ff' 4bb-' 4fff'	.
8B- 8d 8fJ	.	.
=25	=25	=25
8r	4aa-' 4bb-' 4aaa-'	.
8B- 8f 8a-L	.	.
8r	4ff#' 4bb-' 4fff#'	.
8B- 8d 8f#J	.	.
8r	4aa-' 4bb-' 4aaa-'	.
8B- 8fn 8a-L	.	.
8r	4gg' 4bb-' 4ggg'	.
8B- 8e- 8gJ	.	.
=26	=26	=26
8r	4bb-' 4eee-' 4ggg' 4bbb-'	.
8B- 8c 8e- 8b-L	.	.
8r	4gg#' 4ggg#'	.
8B- 8c 8e- 8g#J	.	.
8r	4bb-' 4bbb-'	.
8B- 8c 8e- 8b-L	.	.
8r	4aa' 4aaa'	.
8B- 8c 8e- 8aJ	.	.
!!LO:LB:g=original
=27	=27	=27
8r	4ccc'z 4cccc'z	.
8c 8ccL	.	.
8r	4bb-' 4bbb-'	.
8B- 8b-J	.	.
*clefF4	*	*
8r	4ggn'z 4gggn'z	.
8Gn 8gnL	.	.
8r	4ff' 4fff'	.
8F 8fJ	.	.
=28	=28	=28
8r	4ee-'z 4eee-'z	.
8E- 8e-L	.	.
8r	4dd' 4ddd'	.
8D 8dJ	.	.
8r	4cc'z 4ccc'z	.
8C 8cL	.	.
8r	4b-' 4bb-'	.
8BB- 8B-J	.	.
*	*X8va	*
=29	=29	=29
8r	4g'/z 4gg'/z	.
8GG 8GL	.	.
8r	4f'/ 4ff'/	.
8FF 8FJ	.	.
8r	4e-'z 4ee-'z	.
8EE- 8E-L	.	.
8r	4d' 4dd'	.
8DD 8DJ	.	.
=30	=30	=30
8r	4c'z 4cc'z	.
8CC 8CL	.	.
8r	4B-' 4b-'	.
8BBB- 8BB-J	.	.
8r	4G'z 4g'z	.
8GGG 8GGL	.	.
8r	4F' 4f'	.
8FFF 8FFJ	.	.
=31	=31	=31
*ped	*	*
8r	4a	.
8AAAL	.	.
8rBB	4f	>
8FFFJ	.	.
8r	4cc/	.
8CCL	.	.
8rBB	4f	.
8FFFJ	.	.
!!LO:LB:g=original
=32	=32	=32
8r	4ff	.
8FFL	.	.
!	!LO:TX:a:B:t=Ritard.	!
8rBB	4f	p
8FFFJ	.	.
8r	4aa	.
8AAL	.	.
8rBB	4f	.
8FFFJ	.	.
=33	=33	=33
8r	4ccc	.
8CL	.	.
8rD	4f	.
8FFFJ	.	.
8r	4fff	.
8FL	.	.
8rD	4f	.
8FFFJ	.	.
=34	=34	=34
8r	4fff	pp
8FL	.	.
8rD	4f	.
8FFFJ	.	.
8r	4fff	.
*Xped	*	*
8FL	.	.
8rD	4r	.
!!LO:TX:B:i:t=a Tempo
8BBB-J	.	f
=35	=35	=35
*ped	*	*
4.F 4.B- 4.d	4r	.
*Xped	*	*
.	8r	.
8F' 8B-' 8d'	8dd' 8ff' 8bb-' 8ddd'	.
4F' 4B-' 4d'	4dd' 4ff' 4bb-' 4ddd'	.
8F' 8B-' 8d'L	8dd' 8ff' 8bb-' 8eee-'L	.
8F' 8B-' 8d'J	8dd' 8ff' 8bb-' 8ddd'J	.
=36	=36	=36
4F' 4B-' 4d'	4dd' 4ff' 4bb-' 4ddd'	.
4D' 4F' 4B-'	4b-' 4dd' 4ff' 4bb-'	.
4r	2r	.
8r	.	.
8BBB-	.	.
!!LO:LB:g=original
=37	=37	=37
4.D 4.F 4.B- 4.d	4r	.
.	8r	.
*Xped	*	*
8D 8F 8B- 8d	8dd 8ff 8bb- 8ddd	.
4D' 4d'	4dd' 4ddd'	.
*ped	*	*
8D' 8F#' 8A' 8d'L	8dd' 8ff#' 8aa' 8ddd'L	.
8D' 8F#' 8A' 8d'J	8dd' 8ff#' 8aa' 8ddd'J	.
=38	=38	=38
4D' 4F#' 4A' 4d'	4dd' 4ff#' 4aa' 4ddd'	.
4D' 4F#' 4A' 4d'	4dd' 4ff#' 4aa' 4ddd'	.
4r	4r	.
8r;	8r;	.
*ped	*	*
!	!	!LO:DY:rj:b=2
(8D	8r	p
=39	=39	=39
4.d)	4r	p
.	4f# 4a 4dd	.
8D	.	.
4.d	4r	.
.	4f# 4a 4dd	.
8D	.	.
=40	=40	=40
4.d	4r	.
.	4f# 4a 4dd	.
8D	.	.
4.d	4r	.
.	4f# 4a 4dd	.
8D	.	.
=41	=41	=41
4.A 4.c	4r	.
.	4a 4cc 4dd 4ff#	<
8D	.	.
4.A 4.c	4r	.
.	4a 4cc 4dd 4ff#	.
8D	.	.
=42	=42	=42
4.F# 4.A	4r	.
.	4a 4cc 4ff# 4aa	.
8D	.	.
4.AA	4r	.
.	4cc 4ff# 4aa 4ccc	.
8D	.	.
!!LO:LB:g=original
=43	=43	=43
4.AA	4r	.
*	*8va	*
.	4ff# 4aa 4ccc 4fff#	.
8D/	.	.
4.GG	4r	.
.	4aa 4ccc 4aaa	.
8D/	.	.
=44	=44	=44
4.FF#	4r	.
.	4ccc 4aaa 4cccc	.
8D/	.	.
4.EE-	4r	.
.	4ccc 4fff# 4aaa 4cccc	.
8D/	.	.
=45||	=45||	=45||
*k[f#]	*k[f#]	*
4DD 4D	4ccc 4fff# 4aaa 4cccc	>
*	*X8va	*
*clefG2	*	*
(8ee-L	8aa (8cccL	.
8ddJ	8gg# 8bbnJ	.
4ee-)	4aa 4ccc)	.
(8ddL	(8f# 8aL	.
8cc#J	8gn 8b-J	.
=46	=46	=46
4dd)	4f#) 4a	.
(8e-L	8aa (8cccL	.
8dJ	8gg# 8bbnJ	.
4e-)	4aa 4ccc)	.
*	*8va	*
(8dL	(8fff#L	.
8c#J	8aaaJ)	.
=47	=47	=47
4d)	(8ccccL	p
.	8dddd	<
*clefF4	*	*
8r	8cccc	.
(8D	8bbbJ	.
4F#)	8ccccL	.
.	8dddd	.
8r	8eeee	.
(8A	8ccccJ	.
!!LO:LB:g=original
=48	=48	=48
4c)	8aaaL	.
.	8bbb	.
*clefG2	*	*
8r	8cccc	.
(8f#	8aaaJ	>
4a)	8fff#L	.
.	8ggg	.
(8ccL>	8aaa	.
8aJ)	8fff#J)	]]
*	*X8va	*
=49	=49	=49
(8aaL	(8cccL	p
8bb	8ddd	.
8ccc	8eee	.
8aaJ	8cccJ	.
8ccL	8aaL	.
8dd	8bb	.
8ee	8ccc	.
8ccJ	8aaJ	.
=50	=50	=50
8aL	8ff#L	.
8b	8gg	.
8cc	8aa	.
8aJ	8ff#J	.
8f#L	4a 4cc 4dd)	.
8g	.	.
8a	4r	.
8f#J)	.	.
=51	=51	=51
*	*8va	*
4d 4g 4b	(8bbbL	<
.	8cccc	.
*clefF4	*	*
8r	8bbb	.
(8D	8aaaJ	.
4G)	8bbbL	.
.	8cccc	.
8r	8dddd	.
(8B	8bbbJ	.
=52	=52	=52
4d)	8gggL	.
.	8aaa	.
*clefG2	*	*
8r	8bbb	.
(8g	8gggJ	>
4b/)	8dddL	.
.	8fff#	.
8r	8ggg	.
8dd	8dddJ)	]]
*	*X8va	*
!!LO:LB:g=original
=53	=53	=53
(8ggL	(8bbL	p
8aa	8ccc	.
8bb	8ddd	.
8ggJ	8bbJ	.
8bL	8ggL	.
8cc	8aa	.
8dd	8bb	.
8bJ	8ggJ	.
=54	=54	=54
8gL	8ddL	.
8a	8ff#	.
8b	8gg	.
8gJ	8bJ	.
8bL	8gL	.
8cc	8a	.
8dd	8b	.
8bJ)	8gJ)	.
=55	=55	=55
(8ccL	4d 4f# 4a	<
8dd	.	.
8cc	(8eeeL	.
8bJ	8dddJ	.
8ccL	8eeeL	.
8dd	8ddd	.
8ee	8ccc	.
8ccJ	8eeeJ	.
=56	=56	=56
8aL	8cccL	.
8b	8bb	.
8cc	8aa	.
8aJ	8cccJ	>
8f#L	8aaL	.
8g	8gg	.
8a	8ff#	.
8f#J)	8aaJ)	]]
*clefF4	*	*
=57	=57	=57
(8cL	(8eeL	p
8d	8dd	.
8e	8cc	.
8cJ	8eeJ	.
8AL	8ccL	.
8B	8b	.
8c	8a	.
8AJ	8ccJ	.
!!LO:LB:g=original
=58	=58	=58
8F#L	8aL	.
8G	8g	.
8A	8f#	.
8F#J	8aJ	.
*clefG2	*	*
8aL	8ccL>	.
8g	8b	.
8f#	8a	.
8aJ)	8ccJ)	.
=59	=59	=59
(8bL>	4d 4g	p
8cc	.	.
*	*8va	*
8b	(8ddddL	.
8aJ	8ccccJ	.
8bL>	8ddddL	.
8cc	8cccc	.
8dd	8bbb	.
8bJ	8ddddJ	.
=60	=60	=60
8gL	8bbbL	.
8a	8aaa	.
8b	8ggg	.
8gJ	8bbbJ	.
*	*X8va	*
8dL	8bbL	>
8f#	8aa	.
8g	8gg	.
8dJ)	8bbJ)	]]
*clefF4	*	*
=61	=61	=61
(8BL	(8ddL	p
8c	8cc	.
8d	8b	.
8BJ	8ddJ	.
8GL	8bbL	.
8A	8aa	.
8B	8gg	.
8GJ	8bbJ	.
=62	=62	=62
8DL	8dddL	<
8F#	8ccc	.
8G	8bb	.
8DJ	8dddJ	.
8CL	4eee	.
8G)	.	>
(8D	4aa 4ddd 4fff#)	.
8CJ	.	]]
!!LO:LB:g=original
=63	=63	=63
!	!	!LO:TX:rj
4BB	4gg 4ddd 4ggg	p
4GG\ 4G\	4r	.
8C 8E)	2r	.
8r	.	.
(8cL	.	.
8AJ	.	.
=64	=64	=64
4F#	4r	.
4D 4d	(4f# 4a	.
8G 8B)	8g 8b)	.
8r	8r	.
*clefG2	*	*
*	*8va	*
!!LO:TX:a:B:t=Poco ritard.
[4G [4e	(8bb 8gggL	.
.	8aa 8fff#J	.
=65	=65	=65
*^	*	*
4ryy	4G] 4e]	4bb 4ggg	.
(4e	4G	4gg 4bb 4eee	.
4f#	4A	4ff# 4aa 4ddd	.
8gL	4A	4ee 4gg 4ccc#	.
8aJ	.	.	.
=66	=66	=66	=66
*	*	*^	*
4a	2.d	4gg/ 4eee/	2.ryy	.
8.bL	.	4ff# 4ddd	.	.
16cc#Jk	.	.	.	.
4dd)	.	4ff# 4ddd)	.	.
!!LO:TX:a:B:t=a Tempo
(8eeL	4ryy	(8dddL	8ggL	.
8ff#J	.	8cccnJ	8aaJ	.
*v	*v	*	*	*
=67	=67	=67	=67
4gg	4bb	4rcc	.
4b 4dd	4ggg	4.gg	.
8cc 8ee)	8eee)	.	.
8r	8rfff	8ree	.
(8aL	(8ccccL	8cccL	.
8ccJ	8aaaJ	8eeeJ	.
=68	=68	=68	=68
4dd	4fff#	4ree	.
4f# 4a	4dddd	4.ddd	.
8g 8b)	8bbb)	.	.
8r	8rfff	8ryy	.
4r	(8gggL>	4ryy	.
.	8fff#J	.	.
*	*v	*v	*
!!LO:LB:g=original
=69	=69	=69
*^	*	*
!!LO:TX:a:B:t=Poco ritard.
4e 4g (>4b	4ryy	4ggg	.
4e 4g 4cc	4ryy	4eee	.
4e 4cc	8gL	4ccc	.
*	*	*X8va	*
.	8aJ	.	.
4d# 4f# 4b)	4ryy	4ff# 4bb)	.
*v	*v	*	*
=70	=70	=70
*	*^	*
!!LO:TX:a:B:t=a Tempo
(4d# 4f# 4b	2.bb	4ff#	.
4B 4d#	.	(>8aaL	.
.	.	8ggJ)	.
4e 4g	.	4gg	.
8dn 8fnL	4bb- 4eee	[4gg	.
8c# 8eJ	.	.	.
=71	=71	=71	=71
4c# 4e	2.aa	4gg]	.
4A 4c#	.	(>8ggL	.
.	.	8ffnJ)	.
4d 4fn	.	4ff	.
8cn 8e-L	4aa- 4ddd	[4ff	.
8B) 8dJ	.	.	.
*clefF4	*	*	*
=72	=72	=72	=72
4B (4d	2.gg	4ffnX]	.
4G 4B	.	(>8ffL	.
.	.	8eeJ)	.
4c 4en	.	4ee	.
8B 8dL	4gg 4ccc#	[4ee	.
8A# 8c#J)	.	.	.
=73	=73	=73	=73
4A# (4c#	2.ff#X	4ee]	.
4F# 4A#	.	(>8eeL	.
.	.	8dd#J)	.
4B 4dn	.	4ddn	.
8An 8cnL	4ffn 4bb	4dd	.
8G# 8BJ)	.	.	.
!!LO:LB:g=original
=74	=74	=74	=74
*^	*	*	*
(4B	4G#	(8ffn	4dd	.
.	.	4ee	.	.
4e	8AL	.	4cc#	.
.	8GnJ	8aa)	.	.
4A)	4F#	(8ee-	4ccn	.
.	.	4dd	.	.
4B	(8GL	.	4b	.
.	8BBJ)	8gg)	.	.
*v	*v	*	*	*
*	*v	*v	*
=75	=75	=75
[1AA [1D [1c	(8ddL	<
.	8ddd	.
.	8ccc#	.
.	8cccnJ	.
.	8aaL	.
.	8ff#	.
.	8ee-	.
.	8ddJ)	.
=76	=76	=76
*	*^	*
2AA] 2D] 2c]	(8cc#L	2ryy	.
.	8ccn	.	.
.	8a	.	.
.	8f#J)	.	.
2BB 2D 2B	4g^	8e-L	[
.	.	8dJ	.
.	(8een^L	4g^	.
.	8ddJ)	.	.
*	*v	*v	*
=77	=77	=77
[1AA [1D [1c	(8ddL	<
.	8ddd	.
.	8ccc#	.
.	8cccnJ	.
.	8aaL	.
.	8ff#	.
.	8ee-	.
.	8ddJ	.
=78	=78	=78
*	*^	*
2AA] 2D] 2c]	8cc#L	2ryy	.
.	8ccn	.	.
.	8a	.	.
.	8f#J)	.	.
2BB 2D 2B	4g^	(8e-L	[
.	.	8dJ)	.
.	(8een^L	4g^	.
.	8ddJ)	.	.
!!LO:LB:g=original
=79	=79	=79	=79
(2BBB 2BB	(8ddL	8ddL	.
.	8gg	8b	.
.	8bb	8dd	.
.	8aaJ	8ccJ	.
2EE 2E	[2gg	8bL	.
.	.	8dd#	.
.	.	8ee	.
.	.	8bJ	.
=80	=80	=80	=80
2CC# 2C#	2gg]	8b-L	.
.	.	8dd#	.
.	.	8ee	.
.	.	8b-J	.
4DD 4D)	4ff#	8aL	.
.	.	8cc#J	.
4r	4ryy	8ddnL	.
.	.	8dddJ)	.
*clefG2	*	*	*
*	*v	*v	*
=81	=81	=81
*	*8va	*
[1A [1d [1cc	(8dddL	<
.	8dddd	.
.	8cccc#	.
.	8ccccnJ	.
.	8aaaL	.
.	8fff#	.
.	8eee-	.
.	8dddJ	.
*	*X8va	*
=82	=82	=82
*	*^	*
2A] 2d] 2cc]	2ryy	8ccc#L	.
.	.	8cccn	.
.	.	8aa	.
.	.	8ff#J	.
2B 2d 2b	4gg)	8ee-L^	[
.	.	8ddJ	.
.	(8eeenL	4gg^	.
.	8dddJ)	.	.
*clefF4	*	*	*
*	*v	*v	*
=83	=83	=83
*	*8va	*
[1AA 1D [1c	(8dddL	<
.	8dddd	.
.	8cccc#	.
.	8ccccnJ	.
.	8aaaL	.
.	8fff#	.
.	8eee-	.
.	8dddJ	.
*	*X8va	*
!!LO:LB:g=original
=84	=84	=84
*	*^	*
2AA] 2D 2c]	2ryy	8ccc#L	.
.	.	8cccn	.
.	.	8aa	.
.	.	8ff#J)	.
4BB 4D 4B	4gg	(8ee-^L	.
.	.	8ddJ)	.
*clefG2	*	*	*
4B	(8eeenL	4gg^	.
.	8dddJ)	.	.
=85	=85	=85	=85
(2B	(8dddL	8r	.
.	8gg	8bL	.
.	8bb	8dd	.
.	8aaJ	8ccJ	.
2e	[2gg	8bL	.
.	.	8dd#	.
.	.	8ee	.
.	.	8bJ	.
=86	=86	=86	=86
2c#	2gg]	8b-L	.
.	.	8dd#	.
.	.	8ee	.
.	.	8b-J	.
4d	4ff#	8aL	.
.	.	8ddn	.
4e-)	4gg)	8g	.
.	.	8ccJ	.
=87	=87	=87	=87
(2en	(8ggL	8ggL	<
.	8ccc	8ee	.
.	8eee	8gg	.
.	8dddJ	8ffnJ	.
2a	[2ccc	8eeL	.
.	.	8gg#	.
.	.	8aa	.
.	.	8eeJ	.
=88	=88	=88	=88
2f#	2ccc]	8ee-L	.
.	.	8gg#	.
.	.	8aa	.
.	.	8ee-J	.
4g	4bb)	8ddL	.
.	.	8ggn	.
4a-)	4ccc	8cc	.
.	.	8ffnJ	.
!!LO:LB:g=original
=89	=89	=89	=89
*	*8va	*8va	*
(2an\	8cccL	(8cccL	.
.	8fffn	8aa	.
.	8aaa	8ccc	.
.	8gggJ	8bb-J	.
2dd-	[2fff	8aa-L	.
.	.	8ffn	.
.	.	8aa-	.
.	.	8ggJ	.
=90	=90	=90	=90
2bn)	2fff]	8aa-L	.
.	.	8ccc#	.
.	.	8ddd	.
.	.	8aa-J	.
[2c [2cc	[2eee	8ggL	.
.	.	8bb	.
.	.	8cccn	.
.	.	8ggJ)	.
=91	=91	=91	=91
4c] 4cc]	4eee]	4ccc	.
*clefF4	*	*	*
*ped	*	*	*
!LO:DY:rj	!	!LO:DY:rj	!
4CCz 4Cz	4ryy	4ee'\z 4gg'\z 4ccc'\z 4eee'\z	.
*Xped	*	*	*
2r	4ryy	4bb' 4ddd'	.
.	4ryy	8ccc' 8eee'L	.
.	.	8ddd' 8fffn'J	.
*	*v	*v	*
=92	=92	=92
4r	4eee' 4ggg'	.
4c'z 4e'z	4ccc' 4eee'	.
4B' 4d'	2r	.
8c' 8e'L	.	.
8d' 8fn'J	.	.
=93	=93	=93
4e 4g	4r	.
*ped	*	*
!LO:DY:rj	!	!
4CCz 4Cz	4ee' 4gg' 4ccc' 4eee'	.
*Xped	*	*
2r	4bb' 4ddd'	.
.	8ccc' 8eee'L	.
.	8ddd' 8fffn'J	.
!!LO:LB:g=original
=94	=94	=94
4r	4eee' 4ggg'	.
4CC#' 4C#'	4gg' 4aa' 4eee' 4ggg'	sf
4r	4r	.
4AAA' 4AA'	4gg' 4ccc#' 4eee' 4ggg'	sf
=95	=95	=95
4r	4r	.
4DD' 4D'	4gg' 4bb' 4ddd' 4ggg'	sf
4r	4r	.
4EE' 4E'	4gg' 4aa' 4ccc#' 4ggg'	sf
=96	=96	=96
8DDL	2gg 2bb 2ddd (2ggg	fp
8FF#	.	.
8GG	.	.
8BBJ	.	.
8DL	[2gg [2bb [2ddd)	.
8F#	.	.
8G	.	.
8BJ	.	.
*clefG2	*	*
=97	=97	=97
8dL	4gg] 4bb] (4ddd]	.
8f#	.	.
8g	4dd 4gg 4bb)	.
8bJ	.	.
4r	8ddL	<
.	8ff#	.
8gL	8gg	.
8bJ	8bbJ	.
=98	=98	=98
8cc#L	8ccc#L	.
8dd	8ddd	.
8ee	8eee	.
8ddJ	8dddJ	.
8ff#L	8fff#L	.
8gg	8ggg	.
8aa	8aaa	.
8ggJ	8gggJ	.
=99	=99	=99
8aa#L	8aaa#L	.
8bb	8bbb	.
8ccc	8cccc	.
8bbJ	8bbbJ	.
4ddd	4dddd	sf
*	*X8va	*
12dL	4dd 4aan 4ccc	p
12e	.	.
12f#J	.	.
!!LO:LB:g=original
=100	=100	=100
*Xbrackettup	*	*
!	!LO:TX:b:i:t=cantabile	!
6G	1dd 1gg (1bb	.
6b/	.	.
6g	.	.
6f#	.	.
6b/	.	.
6g	.	.
=101	=101	=101
*	*^	*
*Xtuplet	*	*	*
!	!LO:TX:b:i:t=dolce ed espress.	!	!
6e-	2ccc	2gg	.
6cc/	.	.	.
6g	.	.	.
6c	2ccc 2eee-)	2gg	.
6cc/	.	.	.
6g	.	.	.
=102	=102	=102	=102
!	!LO:TX:b:i:t=sempre legato	!	!
6B	(1gg 1ggg	2ddd	.
6b/	.	.	.
6g	.	.	.
6G	.	2bb	.
6b/	.	.	.
6g	.	.	.
*	*v	*v	*
=103	=103	=103
6c	2gg 2ccc 2eee-	.
6cc/	.	.
6g	.	.
6e-	2gg 2ccc)	.
6cc/	.	.
6g	.	.
=104	=104	=104
*	*^	*
6d	(2bb-	1gg	.
6b-/	.	.	.
6g	.	.	.
6d	2bbn	.	.
6bn/	.	.	.
6g	.	.	.
!!LO:LB:g=original
=105	=105	=105	=105
6d	2ddd	2ff#	.
6cc/	.	.	.
6a	.	.	.
*clefF4	*	*	*
6D	4.aa 4.ccc	4r	.
6d	.	.	.
.	.	4dd	.
6c	.	.	.
.	8ff# 8aa)	.	.
=106	=106	=106	=106
8GGL	4dd\	[<1ggTT< (>1bb	<
8G	.	.	.
8B	2.ryy	.	.
8GJ	.	.	.
8F#L	.	.	.
8G	.	.	.
8g	.	.	.
8GJ	.	.	.
=107	=107	=107	=107
8EL	2ccc	1gg_TTT	.
8G	.	.	.
8g	.	.	.
8GJ	.	.	.
8CL	2eee)	.	.
8G	.	.	.
8e	.	.	.
8GJ	.	.	.
=108	=108	=108	=108
8BBL	(1ggg	1gg_TTT	.
8G	.	.	.
8d	.	.	.
8GJ	.	.	.
8GGL	.	.	.
8G	.	.	.
8B	.	.	.
8GJ	.	.	.
=109	=109	=109	=109
8CL	2eee	1gg_TTT	.
8G	.	.	.
8e	.	.	.
8GJ	.	.	.
8EL	2ccc)	.	.
8G	.	.	.
8g	.	.	.
8GJ	.	.	.
!!LO:LB:g=original
=110	=110	=110	=110
8DL	(4bb-	1gg]TTT	.
8E	.	.	.
8F#	2bbn	.	.
8GJ	.	.	.
8AL	.	.	.
8B	.	.	.
8A	4ddd)	.	.
8GJ	.	.	.
=111	=111	=111	=111
8F#L	1dddTT	4r	.
8G	.	.	.
8F#	.	4dd	.
8EJ	.	.	.
8DL	.	2r	.
8C	.	.	.
8BB	.	.	.
8AAJ	.	.	.
.	(16qccc#LL	.	.
.	16qdddJJ)	.	.
*	*v	*v	*
=112	=112	=112
*	*8va	*
*ped	*	*
8GGGL	4ddd 4fffn 4bbb 4dddd	ff
8GG	.	.
8GGG	2ddd 2fff 2bbb 2dddd	sf
8GGJ	.	.
8GGGL	.	.
8GG	.	.
8GGG	4ccc 4ddd 4fff 4cccc	.
8GGJ	.	.
=113	=113	=113
8GGGL	4bb' 4ddd' 4fffn' 4bbb'	.
8GG	.	.
8GGG	4ccc' 4ddd' 4fff' 4cccc'	.
8GGJ	.	.
8GGGL	4ddd' 4fff' 4dddd'	.
*Xped	*	*
8GG	.	.
8GGG#	4bb' 4ddd' 4eee' 4bbb'	p
8GG#J	.	.
=114	=114	=114
8AAAL	4ccc' 4eee' 4cccc'	.
8AA	.	.
8GGG#	4bb' 4ddd' 4eee' 4bbb'	.
8GG#J	.	.
8AAAL	4ccc' 4eee' 4cccc'	.
8AA	.	.
8CC	4ccc' 4eee' 4ggg' 4cccc'	.
8CJ	.	.
!!LO:LB:g=original
=115	=115	=115
8CC#L	4aa' 4eee' 4ggg'	.
8C#	.	.
8EE	4aa' 4ccc#' 4ggg'	.
8EJ	.	.
8DDL	4aa' 4cccn' 4fff#'	.
8D	.	.
8DD	4aa' 4ccc' 4aaa'	.
8DJ	.	.
=116	=116	=116
8DDL	4gg' 4bb' 4ggg'	<
8D	.	.
8GG	4dd'\ 4bb'\ 4ddd'\	.
8GJ	.	.
8DDL	4ff#' 4ccc' 4fff#'	.
8DJ	.	.
8DL	4aa' 4ccc' 4fff#' 4aaa'	.
8dJ	.	.
=117	=117	=117
8DDL	4gg' 4bb' 4ggg'	.
8D	.	.
8GG	4dd'\ 4bb'\ 4ddd'\	.
8GJ	.	.
8DDL	4ff#' 4ccc' 4fff#'	.
8DJ	.	.
8DL	4aa' 4ccc' 4fff#' 4aaa'	.
8dJ	.	.
=118	=118	=118
8GGL	8ggL>	sf
8G	8ggg	.
8DD	8dd	.
8DJ	8dddJ	.
8FF#L	8ff#L	sf
8F#	8fff#	.
8AA	8aa	.
8AJ	8aaaJ	.
=119	=119	=119
8GGL	8ggL	sf
8G	8ggg	.
8DD	8dd	.
8DJ	8dddJ	.
8FFF#L	8ff#L	sf
8FF#	8fff#	.
8AAA	8aa	.
8AAJ	8aaaJ	.
*	*X8va	*
!!LO:LB:g=original
=120	=120	=120
*>A1	*>A1	*>A1
*	*8va	*
4GGG 4GG	4gg 4ggg	ff
4r	4r	.
4AAA 4AA	4aa 4aaa	.
4r	4r	.
=121	=121	=121
*ped	*	*
[2BBB- [2BB-	[2bb- [2bbb-	.
4.BBB-] 4.BB-]	4.bb-] 4.bbb-]	.
*	*X8va	*
!LO:TX:b:i:t=sempre [ped]	!	!LO:DY:rj
8BB-	8r	p
=122	=122	=122
4.B-	1r	sfp
8B-	.	.
4B-	.	.
4r	.	.
=123	=123	=123
2r	2r	.
4r	4r	.
8r	8r	.
8D	8B-	.
=124	=124	=124
4.d	4.b-	sfp
8d	8b-	.
4d	4b-	.
4r	4r	.
=125	=125	=125
2r	2r	.
4r	4r	.
8r	8r	.
=126:|!	=126:|!	=126:|!
*>A2	*>A2	*>A2
*	*8va	*
4GGG 4GG	4gg 4ggg	sf
4r	4r	.
4AAA 4AA	4aa 4aaa	sf
4r	4r	.
=127	=127	=127
!	!	!LO:DY:cj
1BBB; 1BB;	1bb; 1bbb;	ff
!!LO:LB:g=original
=128	=128	=128
*>B	*>B	*>B
4BBB 4BB	4bb 4bbb	sf
4r	4r	.
4CC 4C	4ccc 4cccc	sf
4r	4r	.
=129	=129	=129
!	!	!LO:DY:cj
1DD; 1D;	1ddd; 1dddd;	ff
*	*X8va	*
*clefG2	*	*
=130	=130	=130
*	*^	*
8bL	4ddd	4dd 4gg	pp
8g	.	.	.
8b	2ddd	2dd 2gg	.
8gJ	.	.	.
8bL	.	.	.
8g	.	.	.
8cc	4ccc'	4ee- 4gg	.
8gJ	.	.	.
=131	=131	=131	=131
8ddL>	4bb'	4ffn' 4gg'	.
8g	.	.	.
8cc	4ccc'	4ee- 4gg	.
8gJ	.	.	.
8bL>	4ddd'	4dd 4gg	.
8g	.	.	.
8dd	4bb'	4ff 4gg	.
!	!	!	!LO:DY:t=sempre %s
8gJ	.	.	pp
=132	=132	=132	=132
8ccL	4eee-	4ee- 4gg	.
8g	.	.	.
8cc	2eee-	2ee- 2gg	.
8gJ	.	.	.
8ccL	.	.	.
8g	.	.	.
8b	4ddd'	4dd 4ffn 4gg	.
8gJ	.	.	.
=133	=133	=133	=133
8ccL	4ccc'	4ee- 4gg	.
8g	.	.	.
8b	4ddd'	4dd 4ffn 4gg	.
8gJ	.	.	.
8ccL	4eee-'	4ee- 4gg	.
8g	.	.	.
8cc	4ccc'	4ee- 4gg	.
8cJ	.	.	.
!!LO:LB:g=original
=134	=134	=134	=134
8b-L	4fffn	4ffn 4aa-	.
8B-	.	.	.
8d 8b-	2fff	2ff 2aa-	<
8B-J	.	.	.
8d 8b-L	.	.	.
8B-	.	.	.
8e- 8b-	4eee-'	4ee- 4gg	.
8B-J	.	.	.
=135	=135	=135	=135
8fn 8b-L	4ddd'	4dd 4ffn	.
8B-	.	.	.
8e- 8b-	4eee-'	4ee- 4gg	.
8B-J	.	.	.
8d 8b-L	4fffny'	4ff 4aa-	.
8B-J	.	.	.
*clefF4	*	*	*
8AA-L>	4bb-' 4ddd'	4dd 4ff	.
8A-J	.	.	.
*	*v	*v	*
=136||	=136||	=136||
*k[b-e-a-]	*k[b-e-a-]	*
*	*8va	*
8GGL	4gg 4eee- 4ggg	sf
8G	.	.
8G	4r	.
8gJ	.	.
8FFL	4aa- 4fff 4aaa-	sf
8F	.	.
8F	4r	.
8fJ	.	.
=137	=137	=137
8EE-L	1bb-; 1ggg; 1bbb-;	sf
*	*X8va	*
8E-J	.	.
2.E-; 2.e-;	.	.
=138	=138	=138
4r	4e- 4g	p
(8GL	4r	.
8B-J)	.	.
4r	4f 4a-	.
(8FL	4r	.
8A-J)	.	.
!!LO:LB:g=original
=139	=139	=139
4r	[2g [2b-	.
[4E- [4G	.	.
4.E-]; 4.G;]	4.g;] 4.b-;]	.
*ped	*	*
!	!	!LO:DY:rj:b=2
(8E-	8r	ff
=140	=140	=140
!	!	!LO:DY:b=2
4.e-)	1r	fp
8e-	.	.
4e-	.	.
4r	.	.
=141	=141	=141
2r	2r	.
!!LO:TX:b=2:i:t=sempre
4r	4r	.
8r	8r	.
*	*clefF4	*
*ped	*	*
(8G	(8E-	ff
=142	=142	=142
4.g)	4.e-)	fp
8g	8e-	.
4g	4e-	.
4r	4r	.
=143	=143	=143
1r	2r	.
.	4r	.
.	8r	.
*Xped	*	*
.	8BB-	p
=144	=144	=144
2r	4.E-	.
.	8E-	.
4r	4E-	.
8r	8FL	.
!	!	!LO:DY:b=2:rj
8EE-	8E-J	p
!!LO:LB:g=original
=145	=145	=145
4.AA-	4E-	.
.	4C	p
8AA-	.	.
4AA-	(2C	.
8BB-L	.	.
8AA-J	.	.
=146	=146	=146
4AA-	4A-')	.
4FF	8A-L	.
.	8GJ	.
(2FF	4F	.
.	8FL	.
.	8E-J	.
=147	=147	=147
4BB-')	4D	.
8BB-L	4r	.
8AA-J	.	.
4GG	(2D	.
8GGL	.	.
8FFJ	.	.
=148	=148	=148
4EEn	4B-')	.
4r	8B-L	.
.	8A-J	.
(2EE	4G	.
.	8GL	.
.	8FJ	.
=149	=149	=149
4C')	4En	.
8CL	4r	.
8BB-J	.	.
4AA-	(2E	.
8AA-L	.	.
8GGJ	.	.
=150	=150	=150
4FF	4c')	.
8r	8cL	<
8C	8B-J	.
4F	4A-	.
8FL	8A-L	.
8E-J	8GJ	.
!!LO:LB:g=original
=151	=151	=151
4D/	4F	.
8DL	8FL	.
8CJ	8GJ	.
4BB-	4A-	.
8CL	8A-L	.
8DJ	8B-J	.
=152	=152	=152
*^	*	*
4E-	2.ryy	4G	.
(4GG	.	8GL	.
.	.	8FJ	.
4AAn)	.	4E-	.
8FL	4C	8r	.
*	*	*clefG2	*
8E-J	.	8f	.
=153	=153	=153	=153
*	*	*^	*
!	!	!	!	!LO:HP:t=più %s
4D	4BB-	4.b-/~~	2.ryy	<
8BB-L	2.ryy	.	.	.
8CJ	.	8b-/	.	.
4D	.	4b-/	.	.
8E-L	.	8ccL	8rc	.
8FJ	.	8b-J	8B-	.
*v	*v	*	*	*
=154	=154	=154	=154
4G	4b-	4.e-	.
4r	4g	.	.
.	.	8e-	.
2r	(2g	4e-	.
.	.	8fL	.
.	.	8e-J	.
=155	=155	=155	=155
4C	4ee-')	4e-	.
8CL	8ee-L>	4c<	.
8DJ	8ddJ	.	.
4En	4cc	(2c<	.
8FL	8ccL>	.	.
8GJ	8b-J	.	.
=156	=156	=156	=156
4F	4an	4f)	.
4r	4r	8fL	.
.	.	8e-XJ	.
4F	(2a	4d	.
8FL	.	8dL	.
8E-XJ	.	8cJ	.
!!LO:LB:g=original
=157	=157	=157	=157
4D	4ff'>/)	4Bn<	.
8DL	8ffL>	4rc<	.
8E-J	8ee-J	.	.
4F	4dd/	2B<	.
8GL	8ddL>	.	.
8A-J	8ccJ	.	.
=158	=158	=158	=158
4G	4bn	4g	.
4r	4rff	8gL	.
.	.	8fJ	.
4G	(2b	4e-	.
8GL	.	8e-L	.
8FJ	.	8dJ	.
=159	=159	=159	=159
4E-	4gg'>/)	4c<	.
8E-L	8ggL>	2c<	.
8FJ	8ffJ	.	.
4G	4ee-/	.	.
8AnL	8ee-L	8gL	.
8BnJ	8ddJ	8fJ	.
=160	=160	=160	=160
4c	4cc	4e-	.
8DL	8ccL	8fL	.
8EnJ	8b-XJ	8gJ	.
4F	4a-X	4c	.
8FFL	8a-L	8cL	.
8GGJ	8gJ	8B-J	.
=161	=161	=161	=161
4AA-	4f	4c	.
4BB-	8fL	4d	.
.	8gJ	.	.
4C-	4a-	4e-	.
!	!	!	!LO:DY:b=2:rj
8BB-L	4b-	8dL	f
8BBB-J	.	8d 8fJ	.
=162	=162	=162	=162
4.EE-	4e- 4b-	4.g	f
.	4rff	.	.
8EE-	.	8g	.
4EE-	4rff	4g	.
8FFL	8rff	8a-L	.
8EE-J	8b-	8gJ	.
!!LO:LB:g=original
=163	=163	=163	=163
*^	*	*	*
4.C	4EE-	4.ee-	4g	.
.	4CC	.	4e-	.
8C	.	8ee-	.	.
4C	(2CC	4ee-	[2e-	.
8DL	.	8ffL	.	.
8CJ	.	8ee-J	.	.
=164	=164	=164	=164	=164
4C	4AA-)	4ee-	4e-]	.
4AA-	8AA-L	4cc	8ccL	.
.	8GGJ	.	8b-J	.
(2AA-	4FF	(2cc	4a-	.
.	8FFL	.	8a-L	.
.	8EE-J	.	8gJ	.
=165	=165	=165	=165	=165
4F')	4DD	4aa-')	4f	.
8FL	4rEE	8aa-L	4r	.
8E-J	.	8ggJ	.	.
4D'	(2DD	4ff'	2f	.
8DL	.	8ffL	.	.
8CJ	.	8ee-J	.	.
=166	=166	=166	=166	=166
4BB-'y	4BB-')	4dd'y	4dd'	.
4rA	8BB-L	4rccc	8ddL	.
.	8AA-J	.	8ccJ	.
(2BB-	4GG	(2dd	4b-	.
.	8GGL	.	8b-L	.
.	8FFJ	.	8a-J	.
=167	=167	=167	=167	=167
4G')	4EEn	4bb-')	4g	.
8GL	4rEE	8bb-L	4r	.
8FJ	.	8aa-J	.	.
4En	(2EE	4gg	[2g	.
8EL	.	8ggL	.	.
8DJ	.	8ffJ	.	.
!!LO:LB:g=original
=168	=168	=168	=168	=168
4C	4C)	4een	4g]	.
4ryy	8CL	4en	8G</L	.
.	8BB-J	.	8d-J\	.
4C	4AA-	4f	4c	.
4En	4GG	4g	8cL	.
.	.	.	8B-J	.
=169	=169	=169	=169	=169
4F	2.FF	2.a-	4A-	.
(4C	.	.	8fL	.
.	.	.	8e-XJ	.
4F	.	.	4dn	.
4E-X)	4FF#	4an	8dL	.
.	.	.	8cJ	.
=170	=170	=170	=170	=170
4D	2.GG	4b-	4B-	<
(4D	.	8ggL	4rc	.
.	.	8ffJ	.	.
4G	.	4ee-	2re	.
4F)	4GG	8ee-L	.	.
.	.	8ddJ	.	.
=171	=171	=171	=171	=171
4E-	2.AA-	2.cc	4rc	.
8A-L	.	.	4c	.
8GJ	.	.	.	.
4F	.	.	[2f	.
8FL	4AAn	4cc#	.	.
8E-J	.	.	.	.
=172	=172	=172	=172	=172
4D	4BB-	4dd	4f]	.
8B-XL	4BBn	8ee-L	8gL	.
8A-J	.	8ddJ	8fJ	.
4G	4C	4cc	4e-	.
4F	4D	8bnL	4d	.
.	.	8gJ	.	.
*v	*v	*	*	*
*	*v	*v	*
!!LO:LB:g=original
=173	=173	=173
4C 4E-	4.cc 4.ee-	f
4r	.	.
.	8cc 8ee-	.
4r	4cc 4ee-	.
8r	8dd 8ffL	.
8C 8E-	8cc 8ee-J	.
=174	=174	=174
4.F 4.A-	4cc 4ee-	.
.	4a- 4cc	.
8F 8A-	.	.
4F 4A-	2a- (2cc	sf
8G 8B-L	.	.
8F 8A-J	.	.
=175	=175	=175
4F 4A-	4ff' 4aa-')	.
4D- 4F	8ff' 8aa-'L	.
.	8ee- 8ggJ	.
!LO:DY:rj	!	!
2D-z (2Fz	4dd- 4ff	.
.	8dd- 8ffL	.
.	8cc 8ee-J	.
=176	=176	=176
4B-' 4d-')	4b- 4dd-	.
8B- 8d-L	4r	.
8A- 8cJ	.	.
4G 4B-	(2b-z 2dd-z	.
8G 8B-L	.	.
8F 8A-J	.	.
=177	=177	=177
4En 4G	4gg' 4bb-')	.
4r	8gg 8bb-L	.
.	8ff 8aa-J	.
!LO:DY:rj	!	!
2Ez (2Gz	4een 4gg	.
.	8ee 8ggL	.
.	8ddn 8ffJ	.
!!LO:LB:g=original
=178	=178	=178
4c' 4en')	4cc 4een	.
8c 8e-L	4r	.
8B- 8d-J	.	.
4A- 4c	(2cc 2ff	.
8A- 8cL	.	.
8G 8B-J	.	.
=179	=179	=179
4F' 4A-'	4aa-' 4ccc')	sf
(8Dn 8FL	8aa- (8cccL	.
8E- 8GJ	8gg 8bb-J	.
4F' 4A-')	4ff' 4aa-')	sf
(8C 8E-L	8gg (8bb-L	.
8D 8FJ	8ff 8aa-J	.
=180	=180	=180
4E-' 4G')	4ee-' 4gg')	sf
(8BBn 8DL<	8aa- (8fffL	.
8C 8E-J	8gg 8eee-J	.
4D' 4F')	4ff' 4ddd')	sf
(8AAn 8CL	8gg (8eee-L	.
8BB 8DJ	8ff 8dddJ	.
=181	=181	=181
4C') 4E-'	4ee-' 4ccc')	sf
*clefG2	*	*
(8d- 8fL	8gg (8bb-L	.
8c 8e-J	8aa- 8cccJ	.
4B-' 4d-')	4bb-' 4ddd-')	sf
(8c 8e-L	8ff (8aa-L	.
8B- 8d-J	8gg 8bb-J	.
*clefF4	*	*
=182	=182	=182
*	*^	*
4A-' 4c')	4aa-' 4ccc')	4ryy	.
(4A- 4c	(8ee-L	4cc	.
.	8ffJ	.	.
4G' 4dn')	4gg')	4bn	.
4r	8r	4ryy	.
.	8b/ 8dd/	.	ff
*	*v	*v	*
!!LO:LB:g=original
=183	=183	=183
4r	2gg [2bbn	.
*clefG2	*	*
8r	.	.
*ped	*	*
8g 8bn	.	.
4.g 4.b	4.gg 4.bb]	.
*clefF4	*	*
8G 8Bn	8bn 8dd	.
=184	=184	=184
*	*^	*
4.G 4.Bn	2.ryy	2.gg 2.bbn	sf
8GG 8BBn	.	.	.
*Xped	*	*	*
4GG 4BB	.	.	.
*	*8va	*	*
4r	(8eee-L	4gg 4bbn	p
.	8dddJ)	.	.
=185	=185	=185	=185
4r	(8gggL	4bbn 4ddd	.
.	8fffJ)	.	.
*	*X8va	*	*
*clefG2	*	*	*
(8eee-L	4r	4r	.
8dddJ)	.	.	.
4r	(8ggL	4b 4dd	.
.	8ffJ)	.	.
(8ee-L	4r	4r	.
8ddJ)	.	.	.
=186	=186	=186	=186
4r	(8gL	4Bn 4d	.
.	8fJ)	.	.
(8e-L	4r	4r	.
8dJ)	.	.	.
4r	(8ggL	4bn 4dd	.
.	8ffJ)	.	.
(8ee-L	4r	4r	.
8ddJ)	.	.	.
*	*v	*v	*
=187	=187	=187
*ped	*	*
4.c 4.cc	[2gg [2ccc [2eee-	ff
8cc 8ee-	.	.
4.cc 4.ee-	4.gg] 4.ccc] 4.eee-]	.
8c 8e-	[8ee- [8gg	.
=188	=188	=188
*	*^	*
4.c 4.e-	2.ryy	2ee-_ 2gg_ [2ccc [2eee-	sf
*clefF4	*	*	*
8C 8E-	.	.	.
*Xped	*	*	*
4C 4E-	.	4ee-] 4gg] 4ccc] 4eee-]	.
*	*8va	*	*
4r	8fffL	4gg 4ccc	p
.	8eee-J	.	.
*	*X8va	*	*
!!LO:LB:g=original
=189	=189	=189	=189
*	*8va	*	*
4r	(8aaa-L	4ccc 4eee-	.
.	8gggJ)	.	.
*	*X8va	*	*
*clefG2	*	*	*
(8fffL	4r	4r	.
8eee-J)	.	.	.
4r	(8aa-L	4cc 4ee-	.
.	8ggJ)	.	.
(8ffL	4r	4r	.
8ee-J)	.	.	.
=190	=190	=190	=190
4r	(8a-L	4c 4e-	.
.	8gJ)	.	.
(8fL	4r	4r	.
8e-J)	.	.	.
4r	(8aa-L	4cc 4ee-	.
.	8ggJ)	.	.
(8ffL	4r	4r	.
8ee-J)	.	.	.
*	*v	*v	*
=191	=191	=191
*ped	*	*
4.B- 4.b-	[2ff [2ddd [2fff	ff
8b- 8dd	.	.
4.b- 4.dd	4.ff] 4.ddd] 4.fff]	.
8B- 8d	8dd 8ff	.
=192	=192	=192
*	*^	*
4.B- 4.d	[2ddd [2fff	4r	.
.	.	8r	.
*clefF4	*	*	*
8BB- 8D	.	8ff	.
*Xped	*	*	*
4BB- 4D	4ddd] 4fff]	4bb-	.
*	*8va	*	*
4r	(8gggL	4bb- 4ddd	p
.	8fffJ)	.	.
*clefG2	*	*	*
=193	=193	=193	=193
4r	(8bbb-L	4dd 4ff	.
.	8aaa-J)	.	.
*	*X8va	*	*
(8gggL	4r	4r	.
8fffJ)	.	.	.
4r	(8bb-L	4dd 4ff	<
.	8aa-J)	.	.
(8ggL	4r	4r	.
8ffJ)	.	.	.
!!LO:LB:g=original
=194	=194	=194	=194
4r	(8b-L	4d 4f	.
.	8a-J)	.	.
(8gL	4r	4r	.
8fJ)	.	.	.
4r	(8bb-L	4dd 4ff	.
.	8aa-J)	.	.
(8ggL	4r	4r	.
8ffJ)	.	.	.
*	*v	*v	*
=195	=195	=195
*ped	*	*
4.e-\ 4.ee-\	[2eee- [2ggg	ff
8ee- 8gg	.	.
4.ee- 4.gg	4.eee-] 4.ggg]	.
8e- 8g	8gg 8bb-	.
=196	=196	=196
*	*^	*
4.e- 4.g	[2eee- [2ggg	4r	sf
.	.	8rb	.
*clefF4	*	*	*
8E- 8e-	.	8gg	.
4E- 4e-	4eee-] 4ggg]	4ccc	.
4r	4r	8r	.
!	!	!	!LO:DY:t=sempre %s
.	.	8ff# 8aan	ff
*Xped	*	*	*
*	*v	*v	*
=197	=197	=197
*	*8va	*
*ped	*	*
4r	[2fff# [2aaan	.
*clefG2	*	*
8r	.	.
8d 8dd	.	.
4.d 4.dd	4.fff#] 4.aaa]	.
*clefF4	*	*
8D 8d	8ff# 8aan	.
=198	=198	=198
*	*^	*
4.D 4.d	[2fff# [2aaan	4rgg	.
.	.	8rgg	.
*Xped	*	*	*
8DD 8D	.	8aan	.
4DD 4D	4.fff#] 4.aaa]	4.ddd	.
*ped	*	*	*
4r	.	.	.
.	8ryy	8gg# 8bbn	.
*	*v	*v	*
!!LO:LB:g=original
=199||	=199||	=199||
*k[]	*k[]	*
4r	[2bb [2ddd [2fffn [2ggg# [2bbb	.
8r	.	.
*clefG2	*	*
8d 8f 8g# 8b 8dd	.	.
4.d 4.f 4.g# 4.b 4.dd	4.bb] 4.ddd] 4.fff] 4.ggg#] 4.bbb]	.
*clefF4	*	*
8D 8F 8G# 8B 8d	8gg# 8bb	.
=200	=200	=200
4.D 4.F 4.G# 4.B 4.d	[2bb [2ddd [2fff [2ggg# [2bbb	.
8DD 8FF 8GG# 8BB 8D	.	.
*Xped	*	*
4DD 4FF 4GG# 4BB 4D	4.bb] 4.ddd] 4.fff] 4.ggg#] 4.bbb]	.
4r	.	.
.	8ee 8gg 8bb- 8ccc#	.
*clefG2	*	*
=201	=201	=201
*ped	*	*
4r	[2eee [2ggg [2bbb- [2cccc#	.
8r	.	.
8d 8g 8b- 8een	.	.
4.d 4.g 4.b- 4.ee	4.eee] 4.ggg] 4.bbb-] 4.cccc#]	.
*clefF4	*	*
8D 8G 8B- 8e	8ee 8gg 8bb- 8ccc#	.
=202	=202	=202
4.D 4.G 4.B- 4.e	[2eee [2ggg [2bbb- [2cccc#	.
8DD 8GG 8BB- 8E	.	.
*Xped	*	*
4DD 4GG 4BB- 4E	4.eee] 4.ggg] 4.bbb-] 4.cccc#]	.
4r	.	.
*ped	*	*
.	8ff# 8aa 8ddd	.
*clefG2	*	*
=203	=203	=203
4r	4.ddd 4.fff# 4.aaa 4.dddd	.
8r	.	.
8d 8f# 8a 8dd	8ddd	.
4.d 4.f# 4.a 4.dd	4.dddd	.
*	*X8va	*
*clefF4	*	*
8D 8d	(8dd	>
!!LO:LB:g=original
=204	=204	=204
4.D 4.d	4.ddd)	.
8DD 8D	(8dd	.
*Xped	*	*
4.DD 4.D	4.ddd)	.
(8D/	(8dd	.
=205	=205	=205
!!LO:TX:a:B:t=Poco ritard.
4.DD)	4.ddd)	.
(8d	(8dd	.
4.D)	4.ddd)	.
(8d	(8dd	.
=206	=206	=206
4.D)	4.ddd)	.
(8d	(8dd	.
4.D)	4.ddd)	.
*clefG2	*	*
!!LO:TX:a:B:t=a Tempo
8b	8dd#	.
=207||	=207||	=207||
*k[f#c#]	*k[f#c#]	*
*	*^	*
*tuplet	*	*	*
!	!	!	!LO:DY:t=%s cantabile
6B	(1ddd#	2ddd#	p
6b/	.	.	.
6a#	.	.	.
6b/	.	2dd#	.
6f#	.	.	.
6b/	.	.	.
=208	=208	=208	=208
*Xtuplet	*	*	*
6g	2eee	1ee	.
6b/	.	.	.
6g	.	.	.
6b/	2gg)	.	.
6e	.	.	.
6b/	.	.	.
!!LO:LB:g=original
=209	=209	=209	=209
6d#	(1bb	2ff#	.
6b/	.	.	.
6d#	.	.	.
6b/	.	2dd#	.
6B	.	.	.
6b/	.	.	.
=210	=210	=210	=210
6B	2gg	2b 2ee	.
6e	.	.	.
6B	.	.	.
6g	2ee)	2b	.
6e	.	.	.
6g	.	.	.
*	*v	*v	*
=211	=211	=211
!	!LO:TX:b:i:t=express.	!
6f#	(2ddn	.
6b/	.	.
6f#	.	.
6b/	2dd#	.
6f#	.	.
6b/	.	.
=212	=212	=212
6f#	2ff#	.
6a#	.	.
6f#	.	.
6a#	4ee	.
6f#	.	.
.	4cc#	.
6a#	.	.
=213	=213	=213
6f#	4dd#)	.
6b/	.	.
.	(4dn	.
6f#	.	.
6b/	2d#)	.
6f#	.	.
6b/	.	.
=214	=214	=214
6a#	(2f#	.
6cc#/	.	.
6a#	.	.
6cc#/	4e	.
6a#	.	.
.	4c#)	.
6cc#/	.	.
!!LO:LB:g=original
=215	=215	=215
!LO:TX:a=2:i:t=sempre e legato	!LO:TX:b:i:t=express.	!
6f#	8b 8dd#L	.
.	8ee	.
6b/	.	.
.	8dd#	.
6f#	.	.
.	8cc##J	.
6b/	8dd#L	.
.	8ee	.
6f#	.	.
.	8ff#	.
6b/	.	.
.	8ee#J	.
=216	=216	=216
6f#	8gg#L	.
.	8ff#	.
6a#	.	.
.	8ee#	.
6f#	.	.
.	8ff#J	.
6a#	8eenL	.
.	8dd#	.
6f#	.	.
.	8ee	.
6a#	.	.
.	8cc#J	.
=217	=217	=217
*	*^	*
6f#	4dd#	8d#L	.
.	.	8e	.
6b/	.	.	.
.	4rff	8d#	.
6f#	.	.	.
.	.	8c##J	.
6b/	2rff	8d#L	.
.	.	8e	.
6f#	.	.	.
.	.	8f#	.
6b/	.	.	.
.	.	8e#J	.
*	*v	*v	*
=218	=218	=218
6a#	8g#L	.
.	8f#	.
6cc#/	.	.
.	8e#	.
6a#	.	.
.	8f#J	.
4cc#/	8enL	.
.	8d#	.
*clefF4	*	*
8r	8e	.
!	!	!LO:DY:b=2:rj
8FFF#	8f#J	f
=219	=219	=219
*^	*	*
4ryy	4.AAA#	4F#< 4c# 4e	.
4r	.	4r	.
.	8AAA#	.	.
4r	4AAA#	2r	.
8r	8BBBL	.	.
!	!	!	!LO:DY:cj
8F#	8AAA#J	.	f
*v	*v	*	*
!!LO:LB:g=original
=220||	=220||	=220||
*k[f#c#g#d#a#]	*k[f#c#g#d#a#]	*
*^	*	*
4.A#	4AAA#	2r	.
.	4FFF#	.	.
8A#	.	.	.
4A#	2r	4r	.
!	!	!	!LO:DY:cj
8BL	.	8r	p
!	!	!LO:TX:a:i:cj:t=m.g.	!
8A#J	.	8f#	.
*v	*v	*	*
=221	=221	=221
*	*^	*
4A#/	4.cc#/	4ryy	.
4F#/	.	4ryy	.
.	8cc#/	.	.
4r	4cc#/	4ryy	.
8r	8dd#L	8ryy	.
!	!LO:TX:b:i:cj:t=m.d.	!	!
8ryy	8cc#J	8c#	.
=222	=222	=222	=222
2r	4cc#	4.e	.
.	4a#	.	.
.	.	8e	.
4r	2rff	4e	.
8r	.	8f#L	.
!	!	!	!LO:DY:rj:b=2
8FFF#	.	8eJ	f
=223	=223	=223	=223
*^	*	*	*
*	*^	*	*	*
4rA	4.ryy	4.EE\	2rff	8eL	.
.	.	.	.	8c#J	.
8rA	.	.	.	4ryy	.
!	!LO:TX:i:cj:a=2:t=m.d.	!	!	!	!
8ryy	8FF#/	8EE\	.	.	.
4.E	4ryy	4EE\	4r	4ryy	.
.	4ryy	4rEE	8r	4ryy	.
!	!	!	!LO:TX:a:i:cj:t=m.g.	!	!
8E	.	.	8f#	.	p
*v	*v	*v	*	*	*
=224	=224	=224	=224
4E	4.ee	4rc	.
4r	.	8rc	.
!	!	!LO:TX:b:i:cj:t=m.d.	!
.	8ee	8e	.
4r	4ee	4.cc#	.
8r	4rff	.	.
8CC#	.	8cc#	.
=225	=225	=225	=225
*^	*	*	*
4rA	4.AA#	2r	4cc#	.
8rA	.	.	4ryy	.
8C#	8AA#	.	.	.
4.A#	4AA#	4rff	4ryy	.
.	4r	8rff	4ryy	.
!	!	!LO:TX:a:i:cj:t=m.g.	!	!
8A#	.	8cc#/	.	.
*v	*v	*	*	*
!!LO:LB:g=original
=226	=226	=226	=226
4A#	4.aa#	4rc	.
!	!LO:TX:i:b:t=m.d.	!	!
4r	.	8rc	.
.	8aa#	8c#	.
4r	4aa#	4.a#	.
8r	4rff	.	.
(8EE\	.	8a#	.
*	*v	*v	*
=227	=227	=227
[2C#)	4a#	<
.	8r	.
.	(8E	.
4.C#]	[2c#)	.
(8GGn\	.	.
=228	=228	=228
[2E)	4.c#]	.
.	(8Gn	.
4.E]	[2e)	.
(8GGn\	.	.
=229	=229	=229
4.E)	8eL]	.
.	(8GnJ	.
.	4.e)	.
*clefG2	*	*
(8gn	.	.
4.ee/)	.	.
.	(8ggn	.
.	[4eee)	.
*clefF4	*	*
(8GG#X	.	.
=230	=230	=230
4.E/)	8eee]	.
.	(8G#X	.
.	4.e)	.
*clefG2	*	*
(8g#X	.	.
4.ee/)	.	.
.	(8gg#X	.
.	[4eee)	.
*clefF4	*	*
(8AA#X\	.	.
!!LO:LB:g=original
=231	=231	=231
4.E)	8eee]	.
.	(8A#X	.
!	!	!LO:HP:t=sempre %s
.	4.e)	<
*clefG2	*	*
(8a#X	.	.
4.ee/)	.	.
.	(8aa#X	.
.	[4eee)	.
*clefF4	*	*
(8AA#X\	.	.
=232	=232	=232
4.Fn)	8eee]	.
.	8A#	.
.	4.fn	.
*clefG2	*	*
(8a#X	.	.
4.ffn/)	.	.
.	(8aa#X	.
.	4fffn)	.
*clefF4	*	*
*ped	*	*
!	!	!LO:DY:b=2:rj
8BBB- 8BB-	.	ff
=233||	=233||	=233||
*k[b-e-]	*k[b-e-]	*
4BB- 4B-	4.dd 4.ff 4.bb- 4.ddd	ff
*Xped	*	*
8cL	.	.
8B-J	8dd 8ff 8bb- 8ddd	.
4F	4dd' 4ff' 4bb-' 4ddd'	.
8GL	8dd' 8ff' 8bb-' 8eee-'L	.
8FJ	8dd' 8ff' 8bb-' 8ddd'J	.
=234	=234	=234
4D	4dd' 4ff' 4bb-' 4ddd'	.
8E-L	4b-' 4dd' 4ff' 4bb-'	.
8DJ	.	.
4BB-	4r	.
*ped	*	*
8CL	8r	.
8BB-J	8dd 8ff	.
=235	=235	=235
(DD16q/LL	.	.
D16q/JJ	.	.
4d)	4.ff 4.bb- 4.fff	.
*Xped	*	*
8e-L	.	.
8dJ	8ff 8bb- 8ddd 8fff	.
4B-	4ff' 4bb-' 4ddd' 4fff'	.
8dL	8ff' 8bb-' 8ddd' 8ggg'L	.
8B-J	8ff' 8bb-' 8ddd' 8fff'J	.
!!LO:LB:g=original
=236	=236	=236
4F	4ff' 4bb-' 4ddd' 4fff'	.
8B-L	4dd' 4ff' 4bb-' 4ddd'	.
8FJ	.	.
8DL	4r	.
8BB-	.	.
8E-	8gg (8bb-L	p
8CJ	8aa 8cccJ)	.
=237	=237	=237
*	*^	*
4BB-	2ff 2bb- (2ddd	2.ryy	.
8CL	.	.	.
8BB-J	.	.	.
4FF\ 4F\	4ff 4aa 4ccc)	.	.
8E-L	8a (8ccL	4f	.
8DJ	8bn 8ddJ)	.	.
=238	=238	=238	=238
4C	2.ryy	2g 2cc (2ee-	.
8DL	.	.	.
8CJ	.	.	.
4GG\ 4G\	.	4g 4b-X 4dd)	.
8F 8A-L	(8ddL	[4b-	.
8E- 8GJ	8ee-J	.	.
=239	=239	=239	=239
4D 4F	(4.ff	4b-]	.
4D- 4F-	.	4g 4b-	.
.	8gg)	.	.
4C 4E-	8ff	4g	.
.	4ee-	.	.
4FFn 4C	.	4a	.
.	8ff	.	.
=240	=240	=240	=240
*^	*	*	*
!!LO:TX:a:B:t=Ritard.
(4GG 4BB-	2.ryy	8ee-L	4b-	.
.	.	8dd	.	.
8DD 8BBnL	.	8f 8a- 8dd 8ff	2.ryy	.
8EE- 8CJ	.	8e- 8g 8cc 8ee-J)	.	.
4FF;) 4C;	.	4c; 4an; 4cc;	.	.
!!LO:TX:a:B:t=a\nTempo
8B-XL	4F	(>8ddL>	.	.
8cJ	.	8ee-J	.	.
!!LO:LB:g=original
=241	=241	=241	=241	=241
4.d	[1F	4.ff	8rg	.
.	.	.	8a	.
.	.	.	[4b-	.
8e-	.	8gg	.	.
4.c	.	4.ee-	8b-L]	.
.	.	.	8g-J	.
.	.	.	[4a	.
8d	.	8ff)	.	.
=242	=242	=242	=242	=242
8cL	2F]	(8ee-L	8aL]	.
8B-	.	8dd	8b-J	.
8d	.	8ff	[4f	.
8cJ	.	8ee-J	.	.
4A	4F	4cc)	4f]	.
*v	*v	*	*	*
*clefG2	*	*	*
*^	*	*	*
8cL	4B-	(8ee-L	8e-L	.
8dJ	.	8ffJ	8fJ	.
=243	=243	=243	=243	=243
4.e-	[1B-	4.gg	8gL	.
.	.	.	8aJ	.
.	.	.	4.b-	.
8f	.	8aa-	.	.
4.d	.	4.ff	.	.
.	.	.	8an	.
.	.	.	[4b-	.
8e-	.	8gg)	.	.
=244	=244	=244	=244	=244
8dL	2B-]	(8ffL	4b-]	.
8c	.	8ee-	.	.
8e-	.	8gg	[4b-	.
8dJ	.	8ffJ)	.	.
4B-	4B-	4dd	4b-]	.
(8dL	4B-	(8ffL	4r	.
8e-J	.	8gg-J	.	.
=245	=245	=245	=245	=245
!	!	!LO:TX:b:i:t=cantabile e legato	!	!
4.f	2B-	4.aa-	8rg	.
.	.	.	8an	.
.	.	.	[4b-	.
8g-)	.	8bb-	.	.
4e-	4e-	4gg-)	4b-]	.
(8e-L	4d-	(8gg-L	8g-L	.
8fJ	.	8aa-J	8a-J	.
!!LO:LB:g=original
=246	=246	=246	=246	=246
4.g-	1d-	4.bb-	8b-L	.
.	.	.	8ccnJ	.
.	.	.	[4dd-	.
8a-)	.	8ccc-	.	.
(8fL	.	4aa-)	8dd-L]	.
8cc-	.	.	8ff	.
8b-	.	8bb-L	8gg-	.
8a-J)	.	8ccc-J	8aa-J	.
=247	=247	=247	=247	=247
!	!	!	!	!LO:HP:t=%s poco a poco
4g-	1d-	(4.ddd-	4bb-	<
[4b-	.	.	[4gg-	.
.	.	8eee-	.	.
4b-]	.	8ddd-	4gg-]	.
.	.	4ccc-	.	.
[4a-	.	.	[4ff	.
.	.	8ddd-	.	.
=248	=248	=248	=248	=248
(4a-]	1d-	8ccc-	4ff]	.
.	.	4bb-	.	.
4g-)	.	.	4gg-	.
.	.	8ccc-	.	.
(4dd-	.	8bb-L	8gg-L	.
.	.	8aa-	8ff	.
4cc-)	.	8bb-	8gg-	.
.	.	8ccc-J)	8aa-J	.
=249	=249	=249	=249	=249
(8cc-L	1d-	(8eee-L	8aa-L	.
8b-	.	8ddd-	8ffJ	.
8cc-	.	8eee-	[4gg-	.
8b-J)	.	8ddd-J)	.	.
(8b-L	.	(8ddd-L	8gg-L]	.
8a-	.	8ccc-	8ff-J	.
8b-	.	8ddd-	[4ffn	.
8a-J)	.	8ccc-J)	.	.
=250	=250	=250	=250	=250
(8a-L	1d-	(8ccc-L	8ffL]	.
8g-	.	8bb-	8dd-J	.
8ee-	.	8ccc-	[4gg-	.
8dd-J)	.	8bb-J)	.	.
(4dd-	.	(8bb-L	8gg-L]	.
.	.	8aa-	8ff	.
4cc-)	.	8bb-	8gg-	.
.	.	8ccc-J)	8aa-J	.
!!LO:LB:g=original
=251	=251	=251	=251	=251
(8anL	2d-	(8eee-L	8ffL	.
8b-	.	8ddd-	8gg-J	.
8cc-	.	8dd-	4gg-	.
8b-J)	.	8ddd-J)	.	.
(8gnL	2d-	(8ddd-L	8ff-L	.
8a-	.	8ccc-	8ffnJ	.
8b-	.	8cc-	4ff	.
8a-J)	.	8ccc-J)	.	.
=252	=252	=252	=252	=252
(8fL	2d-	(8ccc-L	8ffL	.
8g-	.	8bb-	8gg-J	.
8a-	.	8b-	4gg-	.
8g-J)	.	8bb-J)	.	.
(8g-L	4d-	(8bb-L	4r	.
8f	.	8aa-	.	.
8g-	4c-	8bb-	4dd-	.
8a-J)	.	8ccc-J)	.	.
*v	*v	*	*	*
=253	=253	=253	=253
4B- 4b-	(8eee-	8ddL	.
.	4ddd-	8gg-J	.
4A- 4a-	.	4ff 4ccc-	.
.	[8eee--	.	.
*clefF4	*	*	*
4E- 4e-	8eee--L]	4gg- 4bb-	.
.	8eee-	.	.
4Dn 4dn	8eeen	4ff 4bb-	.
.	8fffJ)	.	.
=254	=254	=254	=254
*^	*	*	*
4D- 4d-	2ryy	(8aaaL	4gg- 4bb-	f
.	.	8ggg-	.	.
[4DD- [4D-	.	8fff	4gg- 4bb-	.
.	.	8eee-J)	.	.
8D-L]	4DD-]	4ddd-'	4ff 4aa-	.
8C-	.	.	.	.
8BB-	4DD-	4fff'	4ff 4aa-	.
8AA-J	.	.	.	.
*v	*v	*	*	*
*	*v	*v	*
=255	=255	=255
8GGG- 8GG-	2gg- 2bb- 2ddd- 2ggg-	f
8D- 8G- 8B-L	.	.
8D- 8G- 8B-	.	.
8D- 8G- 8B-J	.	.
8r	2B- 2d- 2g-	.
8BB- 8D- 8G-L	.	.
8BB- 8D- 8G-	.	.
8BB- 8D- 8G-J	.	.
!!LO:LB:g=original
=256	=256	=256
8r	4d-' 4g-' 4b-'	p
8D- 8G- 8B-L	.	.
8r	4B-' 4d-' 4g-'	.
8BB- 8D- 8G-J	.	.
8r	4d-' 4g-' 4b-'	.
8D- 8G- 8B-L	.	.
8r	4c-' 4dn' 4f' 4a-'	.
8C- 8Dn 8F 8A-J	.	.
=257	=257	=257
*	*8va	*
8GGG- 8GG-	2aa- 2ccc- 2dddn 2fff 2aaa-	f
*	*X8va	*
8Dn 8F 8A- 8c-L	.	.
8D 8A- 8c-	.	.
8D 8A- 8c-J	.	.
8r	2c- 2d 2f 2a-X	.
8C- 8D 8F 8A-L	.	.
8C- 8D 8F 8A-	.	.
8C- 8D 8F 8A-J	.	.
=258	=258	=258
!	!	!LO:DY:rj
8r	4d' 4f' 4a-' 4cc-'	p
8D 8F 8A- 8c-L	.	.
8r	4c-' 4d' 4f' 4a-'	.
8C- 8D 8F 8A-J	.	.
8r	4d' 4f' 4a-' 4cc-'	.
8D 8F 8A- 8c-L	.	.
8r	4d-' 4f-' 4gn' 4b-'	.
8D- 8F- 8Gn 8B-J	.	.
=259	=259	=259
*	*8va	*
8GGG- 8GG-	2bb- 2ddd- 2fff- 2bbb-	f
*	*X8va	*
8F- 8B- 8d-L	.	.
8F- 8B- 8d-	.	.
8F- 8B- 8d-J	.	.
8r	2d- 2f- 2gn 2b-	.
8D- 8F- 8Gn 8B-L	.	.
8D- 8G 8B-	.	.
8D- 8G 8B-J	.	.
!!LO:LB:g=original
=260	=260	=260
8r	4f-' 4g' 4b-' 4dd-'	p
8F- 8G 8B- 8d-L	.	.
8r	4d-' 4f-' 4g' 4b-'	.
8D- 8F- 8G 8B-J	.	.
8r	4f-' 4g' 4b-' 4dd-'	.
8F- 8G 8B- 8d-L	.	.
8r	4e--' 4g-' 4cc-'	.
8E-- 8G- 8c-J	.	.
=261	=261	=261
*	*8va	*
8GGG- 8GG-	2ccc- 2eee-- 2ggg- 2cccc-	f
*	*X8va	*
8G- 8c- 8e--L	.	.
8G- 8c- 8e--	.	.
8G- 8c- 8e--J	.	.
8r	2e-- 2g- 2cc-	.
8E-- 8G- 8c-L	.	.
8E-- 8G- 8c-	.	.
8E-- 8G- 8c-J	.	.
=262	=262	=262
8r	4fn' 4a-' 4cc-' 4ddn'	p
8Fn 8A- 8c- 8dnL	.	.
8r	4dn' 4f' 4a-' 4cc-'	<
8Dn 8F 8A- 8c-J	.	.
8r	4f' 4a-' 4cc-' 4dd'	.
8F 8A- 8c- 8dL	.	.
8r	4f-' 4gn' 4b-' 4dd-'	.
8F- 8Gn 8B- 8d-J	.	.
=263	=263	=263
8r	4g' 4b-' 4dd-' 4ff-'	.
8G 8B- 8d- 8f-L	.	.
8r	4f-'\ 4g'\ 4b-'\ 4dd-'\	.
8F- 8G 8B- 8d-J	.	.
8r	4g' 4b-' 4dd-' 4ff-'	.
8G 8B- 8d- 8f-L	.	.
8r	4g-' 4cc-' 4ee--'	.
8G- 8c- 8e--J	.	.
!!LO:LB:g=original
=264	=264	=264
8r	4g-' 4cc-' 4ee--' 4gg-'	.
8G- 8c- 8e--L	.	.
8r	4g-' 4cc-' 4ee--'	.
8G- 8c- 8e--J	.	.
8r	4g-' 4cc-' 4ee--' 4gg-'	.
8G- 8c- 8e--L	.	.
8r	4a-' 4cc-' 4dd' 4ffn'	.
8A- 8c- 8d 8fnJ	.	.
=265	=265	=265
8r	4aa-' 4aaa-'	sf
8A- 8a-L	.	.
8r	4gg-' 4ggg-'	.
8G- 8g-	.	.
8r	4ee-' 4eee-'	sf
8E- 8e-	.	.
8r	4dd-' 4ddd-'	.
8D- 8d-J	.	.
=266	=266	=266
8r	4cc- 4ccc-	sf
8C- 8c-L	.	.
8r	4b-' 4bb-'	.
8BB- 8B-	.	.
8r	4a-' 4aa-'	sf
8AA- 8A-	.	.
8r	4g-' 4gg-'	.
8GG- 8G-J	.	.
=267	=267	=267
8r	4e-' 4ee-'	sf
8EE- 8E-L	.	.
8r	4d-' 4dd-'	.
8DD- 8D-J	.	.
8r	4c-' 4cc-'	sf
8CC- 8C-L	.	.
8r	4B-' 4b-'	.
8BBB- 8BB-J	.	.
!!LO:LB:g=original
=268	=268	=268
!	!	!LO:DY:rj
8rEE	4A-<'> 4a-'>	sf
8AAA- 8AA-L	.	.
8rEE	4G-<'> 4g-'>	.
8GGG- 8GG-J	.	.
!	!	!LO:DY:rj
8rEE	4E-<'> 4e-'>	sf
8EE-L	.	.
8rEE	4D-<'> 4d-'>	.
8DD-J	.	.
=269	=269	=269
*	*lig	*
*ped	*	*
8r	4f	.
8FFL	.	.
8rBB	4d-	.
8DD-J	.	.
8r	4a-	.
8AA-L	.	.
8rBB	4d-	.
8DD-J	.	.
=270	=270	=270
8r	4dd-	>
8D-L	.	.
8rD	4d-	.
8DD-J	.	.
8r	4ff	.
8FL	.	.
8rD	4d-	p
8DD-J	.	.
=271	=271	=271
!!LO:TX:a:B:t=Ritard.
8r	4aa-	.
8A-L	.	.
8r	4d-	.
8DD-J	.	.
8r	4ddd-	.
8d-L>	.	.
8r	4d-	.
8DD-J	.	.
=272	=272	=272
8r	4ddd-	.
8d-	.	.
8r	4d-	.
8DD-	.	.
!	!	!LO:DY:rj
8r	4.ccc#;	pp
*Xped	*	*
!	!	!LO:DY:b=2:cj
4F#; 4c#;	.	pp
!	!	!LO:DY:b=2:rj
*ped	*	*
8BBBn	8r	ff
!!LO:LB:g=original
=273||	=273||	=273||
*k[f#c#]	*k[f#c#]	*
!!LO:TX:a:B:t=a Tempo
4.F# 4.B 4.d	4r	.
.	8r	.
!	!	!LO:DY:rj
8F# 8B 8d	8dd 8ff# 8bb 8ddd	ff
4F#' 4B' 4d'	4dd' 4ff#' 4bb' 4ddd'	.
8F#' 8B' 8d'L	8dd' 8ff#' 8bb' 8eee'L	.
8F#' 8B' 8d'J	8dd' 8ff#' 8bb' 8ddd'J	.
=274	=274	=274
4F#' 4B' 4d'	4dd' 4ff#' 4bb' 4ddd'	.
4D' 4F#' 4B'	4b' 4dd' 4ff#' 4bb'	.
4r;	4.r;	.
8r	.	.
*Xped	*	*
8BB	8r	pp
=275	=275	=275
4.d	4r	.
.	4dd 4ff# 4bb 4ddd	.
8BB	.	.
4.d	4r	.
.	4dd 4ff# 4bb 4ddd	.
8BB	.	.
=276	=276	=276
4.d	4r	.
.	4dd 4gg 4bb 4ddd	.
8GG	.	.
4.B	4r	.
.	4dd 4gg 4bb 4ddd	.
8GG	.	.
=277	=277	=277
4.B	4r	.
.	4dd 4gg 4bb 4ddd	.
8GG	.	.
4.B	4r	.
.	4dd 4gg 4bb 4ddd	.
8GG	.	.
=278	=278	=278
4.B	4r	.
.	4ee- 4gg 4cccn 4eee-	.
8CCn	.	.
4.E-	4r	<
.	4ee- 4gg 4ccc 4eee-	.
8CC	.	.
!!LO:LB:g=original
=279||	=279||	=279||
*k[b-e-]	*k[b-e-]	*
4.E-	4r	.
.	4ee- 4gg 4ccc 4eee-	.
8CC	.	.
4.E-	4r	.
.	4ee- 4gg 4ccc 4eee-	.
8CC	.	.
=280	=280	=280
4.E-	4r	.
.	4ee- 4aa 4ccc 4eee-	.
8FFF	.	.
4.AA	4r	.
.	4ee- 4aa 4ccc 4eee-	.
8FFF	.	.
=281	=281	=281
4.AA	4r	.
.	4ee- 4aa 4ccc 4eee-	.
8FF	.	.
4.CC	4r	.
*	*8va	*
.	4aa 4ccc 4eee- 4aaa	.
8FF	.	.
=282	=282	=282
4.AAA	4r	.
.	4ccc 4eee- 4aaa 4cccc	.
8FF	.	.
4.GGG-	4r	.
.	4eee- 4aaa 4cccc 4eeee-	.
8FF	.	.
=283	=283	=283
4FFF 4FF	4eee- 4aaa 4cccc 4eeee-	>
*	*X8va	*
*clefG2	*	*
(8gg-L	8ccc (8eee-L	.
8ffJ	8bbn 8dddJ	.
4gg-)	4ccc 4eee-)	.
(8ffL	8a (8ccL	.
8eenJ	8b- 8dd-J	.
=284	=284	=284
4ff)	4a 4cc)	.
(8g-L	8cc (8ee-L	.
8fJ	8bn 8ddJ	.
4g-)	4cc 4ee-)	.
(8fL	(8aaL	.
8enJ)	8cccJ)	.
*clefF4	*	*
!!LO:LB:g=original
=285	=285	=285
4F 4A 4c 4e-X	(8eee-L	p
.	8fff	.
8r	8eee-	<
(8F	8dddJ	.
4A)	8eee-L	.
.	8fff	.
8r	8ggg	.
(8c	8eee-J	.
=286	=286	=286
4e-)	8cccL	.
.	8ddd	.
*clefG2	*	*
8r	8eee-	.
(8a	8cccJ	.
4cc/)	8aaL	.
.	8bb-	.
(8ee-L>	8ccc	.
8ccJ)	8aaJ)	.
=287	=287	=287
(8gL	(8ee-L	p
8a	8ff	.
8b-	8gg	.
8gJ	8ee-J	.
8e-L	8ccL	.
8f	8dd	.
8g	8ee-	.
8e-J	8ccJ	.
=288	=288	=288
8cL	8aL	.
8d	8b-	.
8e-	8cc	.
8cJ	8aJ	.
8AL	4c 4e- 4f)	.
8B-	.	.
8c	4r	.
8AJ)	.	.
*clefF4	*	*
=289	=289	=289
4F 4B- 4d	(8dddL	<
.	8eee-	.
8r	8ddd	.
(8F	8cccJ	.
4B-)	8dddL	.
.	8eee-	.
8r	8fff	.
(8d	8dddJ	.
!!LO:LB:g=original
=290	=290	=290
4f)	8bb-L	.
.	8ccc	.
*clefG2	*	*
8r	8ddd	.
(8b-	8bb-J	>
4dd)	8ffL	.
.	8aa	.
(8dL	8bb-	.
8B-J)	8ffJ)	]]
=291	=291	=291
(8b-L	(8ddL	p
8cc	8ee-	.
8dd	8ff	.
8b-J	8ddJ	.
8dL	8b-L	.
8e-	8cc	.
8f	8dd	.
8dJ	8b-J	.
=292	=292	=292
8B-L	8fL	.
8c	8a	.
8d	8b-	.
8B-J	8dJ	.
8ddL	8b-L	.
8ee-	8cc	.
8ff	8dd	.
!!LO:TX:b:i:t=sempre legato
8ddJ)	8b-J)	.
=293	=293	=293
8ee-L	4f 4a 4cc	<
8ff	.	.
!!LO:TX:a:i:t=sempre legato
8ee-	8gggL	.
8ddJ	8fffJ	.
8ee-L	8gggL	.
8ff	8fff	.
8gg	8eee-	.
8ee-J	8gggJ	.
=294	=294	=294
8ccL	8eee-L	.
8dd	8ddd	.
8ee-	8ccc	.
8ccJ	8eee-J	.
8aL	8cccL	>
8b-	8bb-	.
8cc	8aa	.
8aJ	8cccJ	]]
*clefF4	*	*
!!LO:LB:g=original
=295	=295	=295
8e-L	8gg-L	p
8f	8ff	.
8g-	8ee-	.
8e-J	8gg-J	.
8cL	8ee-L	.
8d	8dd	.
8e-	8cc	.
8cJ	8ee-J	.
=296	=296	=296
8AL	8ccL	.
8B-	8b-	.
8c	8a	.
8AJ	8ccJ	.
*clefG2	*	*
8ccL	8e-L	.
8b-	8d	.
8a	8c	.
8ccJ	8e-J	.
=297	=297	=297
8ddL	4f 4b-	.
8ee-	.	.
8dd	8fffL	<
8ccJ	8eee-J	.
8ddL	8fffL	.
8ee-	8eee-	.
8ff	8ddd	.
8ddJ	8fffJ	.
=298	=298	=298
8b-L	8dddL	.
8cc	8ccc	.
8dd	8bb-	.
8b-J	8dddJ	>
8fL	8ffL	.
8a	8ee-	.
8b-	8dd	.
8fJ	8ffJ	]]
*clefF4	*	*
=299	=299	=299
8dL	8bb-L	p
8e-	8gg	.
8f	8ff	.
8dJ	8bb-J	.
8B-L	8ffL	.
8c	8ee-	.
8d	8dd	.
8B-J	8ffJ	.
!!LO:LB:g=original
=300	=300	=300
*	*^	*
8FL	8dddL	2dd	<
8A	8ccc	.	.
8B-	8bb-	.	.
8FJ	8dddJ	.	.
8E-L	8eee-L	2gg-	>
(8A	8ccc	.	.
8F	8ddd	.	.
8E-J	8eee-J	.	]]
*	*v	*v	*
=301	=301	=301
!	!	!LO:DY:t=%s dolce
4D	4ff 4fff	p
4BB- 4B-	4r	.
8E- 8G)	2r	.
8r	.	.
(8e-L	.	.
8cJ	.	.
=302	=302	=302
4A	4r	.
4F 4f	(4a 4cc	.
8B- 8d)	8b- 8dd)	.
8r	8r	.
4r	(8bb-L	.
.	8aaJ)	.
=303	=303	=303
*^	*	*
!!LO:TX:a:B:t=Poco ritard
4r	2.ryy	4bb-	.
*clefG2	*	*	*
&(4B- 4d- 4en 4g	.	4gg 4bb- (4ggg	.
4c 4f 4a	.	4ff 4aa 4fff	.
(8b-L	4c&) 4g	4een 4gg 4eeen)	.
8ccJ	.	.	.
=304	=304	=304	=304
*	*	*^	*
4cc	4f	(4gg 4bb- 4ggg	2.ryy	.
8.ddL	4f	4ff 4aa 4fff)	.	.
16eenJk	.	.	.	.
4ff)	4f	4aa 4fff	.	.
!!LO:TX:a:B:t=a Tempo
4ryy	(<(>8gL<	(8ffL	8b-L	.
.	8aJ)	8ee-XJ	8ccJ	.
*v	*v	*	*	*
=305	=305	=305	=305
4b-/	4dd	4r	.
4d 4f	4bb-	4.b-	.
8e 8g)	8gg)	.	.
8r	8r	8r	.
(8ccL	(8eee-L	8ee-L	.
8ee-J	8cccJ	8ggJ	.
!!LO:LB:g=original
=306	=306	=306	=306
4ff	4aa	4r	.
4a 4cc	4fff	4.ff	.
8b- 8dd)	8ddd)	.	.
8r	8raa	8r	.
(8gL	(8bb-L	4r	.
8f#J)	8aaJ)	.	.
=307	=307	=307	=307
!!LO:TX:a:B:t=Poco ritard.
4g	4bb-	4r	.
(4g/ 4b-/ 4ee-/	4ryy	4gg (4ggg	.
4g 4cc	4ryy	4ee- 4gg 4eee-	.
4f#) 4a	4ryy	4dd 4aa 4ddd)	.
=308	=308	=308	=308
(4f# 4a	2.ddd	4dd	.
4d 4f#	.	(>8cccL	.
.	.	8bb-J)	.
4g) 4b-	.	4bb-'>	.
(8fn 8a-L	4ggg	[4bb- 4ddd-	.
8en) 8gJ	.	.	.
=309	=309	=309	=309
(4en 4g	2.ccc	4bb-]	.
4c 4e	.	(>8bb-L	.
.	.	8aa-J)	.
4f) 4a-	.	4aa-'>	.
(8e- 8g-L	4fff	[4aa- 4ccc-	.
8d) 8fJ	.	.	.
=310	=310	=310	=310
(4d 4f	2.bb-	4aa-]	.
4B- 4d	.	(>8aa-L	.
.	.	8ggJ)	.
4e- 4gn)	.	4gg'>	.
(8d 8fL	4eeen	[4gg 4bb-	.
8c# 8enJ)	.	.	.
=311	=311	=311	=311
(4c# 4en	2.aan	4gg]	.
4A 4c#	.	(8ggL	.
.	.	8ffJ)	.
4d) 4f	.	4ff'	.
(8cn 8e-L	4ddd	4ff 4aa-	.
8Bn) 8dJ	.	.	.
*clefF4	*	*	*
!!LO:LB:g=original
=312	=312	=312	=312
*^	*	*	*
4ryy	(<4Bn 4d	(8aa-	4ff	.
.	.	4gg	.	.
4e-	8cL	.	4ee-	.
.	8B-J	8ccc)	.	.
4c	4A)	(8gg-	4ee-	.
.	.	4ff	.	.
4d	8B-L	.	4dd	.
.	8DJ	8bb-)	.	.
*v	*v	*	*	*
*	*v	*v	*
=313	=313	=313
[1C [1F [1e-	(8ffL	<
.	8fff	.
.	8eeen	.
.	8eee-J	.
.	8cccL	.
.	8aa	.
.	8gg-	.
.	8ffJ	.
=314	=314	=314
*	*^	*
2C] 2F] 2e-]	2ryy	8eenL	.
.	.	8ee-	.
.	.	8cc	.
.	.	8aJ)	[ >
2D 2F 2d	4b-	(8g-L	.
.	.	8fJ)	.
.	(8ggn^L	4b-	]
.	8ffJ)	.	.
*	*v	*v	*
=315	=315	=315
[1CC [1FF [1E-	(8ffL	<
.	8fff	.
.	8eeen	.
.	8eee-J	.
.	8cccL	.
.	8aa	.
.	8gg-	.
.	8ffJ	.
=316	=316	=316
*	*^	*
2CC] 2FF] 2E-]	2ryy	8eenL	.
.	.	8ee-	.
.	.	8cc	.
.	.	8aJ)	[
2DD 2FF 2D	4b-	(8g-L	>
.	.	8fJ)	.
.	(8ggn^L	4b-	]
.	8ffJ)	.	.
!!LO:LB:g=original
=317	=317	=317	=317
2DD 2D	(8ffL	8rg	.
.	8bb-	8ddL	.
.	8ddd	8ff	.
.	8cccJ	8ee-J	.
2GG 2G	[2bb-	8ddL	.
.	.	8ff	.
.	.	8gg#	.
.	.	8ddJ	.
=318	=318	=318	=318
2EEn 2En	2bb-]	8dd-L	.
.	.	8ff#	.
.	.	8gg	.
.	.	8dd-J	.
4FF 4F	4aa)	8ccL	.
.	.	8ffnJ	.
4r	4ryy	(8ffL	.
.	.	8fffJ)	.
*clefG2	*	*	*
*	*v	*v	*
=319	=319	=319
*	*8va	*
!	!LO:TX:b:i:t=sempre legato	!
[1c [1f [1ee-	8fffL	<
.	8ffff	.
.	8eeeen	.
.	8eeee-J	.
.	8ccccL	.
.	8aaa	.
.	8ggg-	.
.	8fffJ	.
*	*X8va	*
=320	=320	=320
*	*^	*
2c] 2f] 2ee-]	2ryy	8eeenL	.
.	.	8eee-	.
.	.	8ccc	.
.	.	8aaJ	[
2d 2f 2dd	4bb-	8gg-L	>
.	.	8ffJ	.
.	(8gggn^L	4bb-	]
.	8fffJ)	.	.
*clefF4	*	*	*
*	*v	*v	*
=321	=321	=321
[1C [1F [1e-	8r	.
.	8fffL	<
.	8eeen	.
.	8eee-J	.
.	8cccL	.
.	8aa	.
.	8gg-	.
.	8ffJ	[[
!!LO:LB:g=original
=322	=322	=322
*	*^	*
2C] 2F] 2e-]	8eenL>	2ryy	.
.	8ee-	.	.
.	8cc	.	.
.	8aJ	.	>
2D 2F 2d	4b-	(8g-L	.
.	.	8fJ)	.
.	(8ggn^L	4b-	.
.	8ffJ)	.	.
=323	=323	=323	=323
2D 2d	(8ffL	8rg	.
.	8bb-	8ddL	.
.	8ddd	8ff	.
.	8cccJ	8ee-J	.
2G 2g	[2bb-	8ddL	.
.	.	8ff#	.
.	.	8gg	.
.	.	8ddJ	.
=324	=324	=324	=324
2En 2en	2bb-]	8dd-L	.
.	.	8ff#	.
.	.	8gg	.
.	.	8dd-J	.
4F 4f	4aa	8ccL	.
.	.	8ffn	.
4G- 4g-	4bb-)	8b-	.
.	.	8ee-J	.
*clefG2	*	*	*
=325	=325	=325	=325
*	*8va	*8va	*
2Gn 2gn	8bb-L	8ree	<
.	8eee-	8ggL	.
.	8ggg	8bb-	.
.	8fffJ	8aa-J	.
2c 2cc	([2eee-	8ggL	.
.	.	8bbn	.
.	.	8ccc	.
.	.	8ggJ	.
=326	=326	=326	=326
2A 2a	2eee-]	8gg-L	.
.	.	8bbn	.
.	.	8ccc	.
.	.	8gg-J	.
4B- 4b-	4ddd	8ffL	.
.	.	8bb-	.
4c- 4cc-	4eee-)	8ee-	.
.	.	8aa-J	.
!!LO:LB:g=original
=327	=327	=327	=327
2cn 2ccn	(4eee-	8rgg	.
.	.	8cccL	.
.	4aaa-)	8eee-	.
.	.	8ddd-J	.
2f-/ 2ff-/	[2aaa-	8ddd-L	.
.	.	8ccc-	.
.	.	8bb-	.
.	.	8ccc-J	.
=328	=328	=328	=328
2dn 2ddn	2aaa-]	8ccc-L	.
.	.	8eeen	.
.	.	8fffn	.
.	.	8ccc-J	.
[2e- [2ee-	[2ggg	8bb-L	.
.	.	8dddn	.
.	.	8eee-	.
.	.	8bb-J	.
=329	=329	=329	=329
4e-] 4ee-]	4ggg]	4gg	.
*clefF4	*	*	*
*ped	*	*	*
!	!	!	!LO:DY:cj
4EE- 4E-	2.ryy	4gg' 4bb-' 4eee-' 4ggg'	ff
2r	.	4ddd' 4fff'	.
*Xped	*	*	*
.	.	8eee-' 8ggg'L	.
.	.	8fff' 8aaa-'J	.
*	*v	*v	*
=330	=330	=330
4r	4ggg' 4bbb-'	.
*clefG2	*	*
!	!	!LO:DY:rj
4e-' 4g'	4eee-' 4ggg'	ff
4d' 4f'	2r	.
8e-' 8g'L	.	.
8f' 8a-'J	.	.
=331	=331	=331
4g' 4b-'	4r	.
*clefF4	*	*
*ped	*	*
4EE-' 4E-'	4gg' 4bb-' 4eee-' 4ggg'	ff
2r	4ddd' 4fff'	.
*Xped	*	*
.	8eee-' 8ggg'L	.
.	8fff' 8aaa-'J	.
!!LO:LB:g=original
=332	=332	=332
4r	4ggg' 4bbb-'	.
*	*X8va	*
4EEn' 4En'	4b-' 4cc' 4gg' 4bb-'	sf
4r	4r	.
4CC' 4C'	4b-' 4een' 4gg' 4bb-'	sf
=333	=333	=333
4r	4r	.
4FF' 4F'	4b-' 4dd' 4ff' 4bb-'	sf
4r	4r	.
4GG' 4G'	4b-' 4cc' 4een' 4bb-'	sf
=334	=334	=334
8FFL	2b- 2dd 2ff 2bb-	fp
8AA	.	.
8BB-	.	.
8DJ	.	.
8FL	[2dd [2ff	.
8A	.	.
8B-	.	.
8dJ	.	.
*clefG2	*	*
=335	=335	=335
8fL	4dd] (4ff]	.
8a	.	.
8b-	8dd)	.
8ddJ	8r	.
2r	8ffL	<
.	8aa	.
.	8bb-	.
.	8dddJ	.
=336	=336	=336
*	*8va	*
8eenL	8eeenL	.
8ff	8fff	.
8gg	8ggg	.
8ffJ	8fffJ	.
8aaL	8aaaL	.
8bb-	8bbb-	.
8ccc	8cccc	.
8bb-J	8bbb-J	.
=337	=337	=337
8ccc#L	8cccc#L	.
8ddd	8dddd	.
8eee-	8eeee-	.
8dddJ	8ddddJ	.
4fff	4ffff	sf
*	*X8va	*
*tuplet	*	*
12fL	4ccn 4ee-	p
12g	.	.
12aJ	.	.
!!LO:LB:g=original
=338	=338	=338
*	*^	*
6B-	(2dd	1dd	.
6b-/	.	.	.
6a	.	.	.
6b-/	2ddd	.	.
6a	.	.	.
6b-/	.	.	.
=339	=339	=339	=339
*Xtuplet	*	*	*
6g-	2eee-	2ee-	.
6b-/	.	.	.
6g-	.	.	.
6b-/	2ggg-)	2gg-	.
6e-	.	.	.
6b-/	.	.	.
=340	=340	=340	=340
6d	[1bb-	2ryy	.
6b-/	.	.	.
6f	.	.	.
6B-	.	2dd 2ff	.
6b-/	.	.	.
6f	.	.	.
=341	=341	=341	=341
6e-	(4bb-]	2gg-	.
6b-/	.	.	.
.	4ggg-	.	.
6e-	.	.	.
6g-	2eee-)	2ee-	.
6b-/	.	.	.
6g-	.	.	.
*	*v	*v	*
=342	=342	=342
6f	2dd- (2ddd-	.
6b-/	.	.
6f	.	.
6bn/	2ddn 2dddn	.
6f	.	.
6b/	.	.
=343	=343	=343
6f	2ff 2fff	.
6cc/	.	.
6a	.	.
*clefF4	*	*
6F	4.ee- 4.eee-	.
6c	.	.
6A	.	.
.	8cc 8ccc)	.
!!LO:LB:g=original
=344	=344	=344
*	*^	*
8BB-L	1dd 1ddd	[1bb-TT	.
8B-	.	.	.
8d	.	.	.
8B-J	.	.	.
8FL	.	.	.
8B-	.	.	.
8a-	.	.	.
8B-J	.	.	.
*clefG2	*	*	*
=345	=345	=345	=345
8GL	2ee- 2eee-	1bb-_TTT	.
8B-	.	.	.
8g	.	.	.
8B-J	.	.	.
*clefF4	*	*	*
8E-L	2gg 2ggg	.	.
8B-	.	.	.
8g	.	.	.
8B-J	.	.	.
=346	=346	=346	=346
8DL	1bb- 1bbb-	1bb-_TTT	.
8B-	.	.	.
8f	.	.	.
8B-J	.	.	.
8BB-L	.	.	.
8B-	.	.	.
8d	.	.	.
8B-J	.	.	.
=347	=347	=347	=347
8E-L	2gg 2ggg	1bb-_TTT	.
8B-	.	.	.
8g	.	.	.
8B-J	.	.	.
*clefG2	*	*	*
8GL	2ee- 2eee-	.	.
8B-	.	.	.
8g	.	.	.
8B-J	.	.	.
*clefF4	*	*	*
=348	=348	=348	=348
8FL	4dd- (4ddd-	1bb-]TTT	.
8B-	.	.	.
8A	2ddn 2dddn	.	.
8B-J	.	.	.
8FL	.	.	.
8D	.	.	.
8C	4ff 4fff)	.	.
8BB-J	.	.	.
=349	=349	=349	=349
8FFL	([2fff	1aatt	.
8GG	.	.	.
8AA	.	.	.
8BB-J	.	.	.
8CL>	8fffL]	.	.
8D	8eee-	.	.
8E-	8ccc	.	.
8FJ	8fffJ)	.	.
*	*v	*v	*
!!LO:LB:g=original
=350	=350	=350
!	!	!LO:DY:cj
*ped	*	*
8BBB-L	4ff 4aa- 4ddd 4fff	ff
8BB-	.	.
*	*8va	*
8BBB-	2fff 2aaa- 2dddd 2ffff	sf
8BB-J	.	.
8BBB-L	.	.
8BB-	.	.
8BBB-	4eee-' 4fff' 4aaa-' 4eeee-'	.
8BB-J	.	.
=351	=351	=351
8BBB-L	4ddd' 4fff' 4aaa-' 4dddd'	.
8BB-	.	.
8BBB-	4eee-' 4fff' 4aaa-' 4eeee-'	.
8BB-J	.	.
8BBB-L	4fff' 4aaa-' 4ffff'	.
8BB-	.	.
8BBBn	4ddd' 4fff' 4ggg' 4dddd'	p
*Xped	*	*
8BBnJ	.	.
=352	=352	=352
8CCL	4eee-' 4ggg' 4eeee-'	.
8C	.	.
8BBBn	4ddd' 4fff' 4ggg' 4dddd'	.
8BBnJ	.	.
8CCL	4eee-' 4ggg' 4eeee-'	.
8C	.	.
8EE-	4ccc' 4ggg' 4cccc'	.
8E-J	.	.
=353	=353	=353
8EEnL	4ccc' 4ggg' 4bbb-'	.
8En	.	.
8GG	4ccc' 4eeen' 4bbb-'	.
8GJ	.	.
8FFL	4ccc 4eee- 4aaan	.
8F	.	.
8FF	4ccc' 4eee-' 4cccc'	.
8FJ	.	.
=354	=354	=354
8FFL	4bb-' 4ddd' 4bbb-'	<
8F	.	.
8BB-	4ff' 4ddd' 4fff'	.
8B-J	.	.
8FFL	4aa' 4eee-' 4fff' 4aaa'	.
8F	.	.
8F	4ccc' 4eee-' 4fff' 4cccc'	.
8fJ	.	.
!!LO:LB:g=original
=355	=355	=355
8FFL	4bb-' 4ddd' 4fff' 4bbb-'	.
8F	.	.
8BB-	4ff' 4ddd' 4fff'	.
8B-J	.	.
8FFL	4aa' 4eee-' 4fff' 4aaa'	.
8F	.	.
8F	4ccc' 4eee-' 4fff' 4cccc'	.
*	*X8va	*
8fJ	.	.
=356	=356	=356
8BB-L	8b-L	f
8B-	8bb-	.
8FF	8f	.
8FJ	8ffJ	.
8AAL	8aL	sf
8A	8aa	.
8C	8cc	.
8cJ	8cccJ	.
=357	=357	=357
8BB-L	8b-L	f
8B-	8bb-	.
8FF	8f	.
8FJ	8ffJ	.
8AAAL	8aL	sf
8AA	8aa	.
8CC	8cc	.
8CJ	8cccJ	.
=358	=358	=358
8BBB-L	8b-L	sf
8BB-	8bb-	.
8FFF	8f	.
8FFJ	8ffJ	.
8BBBnL	8bnL	sf
8BBn	8bbn	.
8DD	8dd	.
8DJ	8dddJ	.
=359	=359	=359
8CCL	8ccL	sf
8C	8ccc	.
8GGG	8g	.
8GGJ	8ggJ	.
8BBBnL	8bnL	sf
8BBn	8bbn	.
8DD	8dd	.
8DJ	8dddJ	.
!!LO:LB:g=original
=360	=360	=360
8CCL	8ccL	sf
8C	8ccc	.
8GGG	8g	.
8GGJ	8ggJ	.
8CCL	8ccL	sf
8C	8ccc	.
8EE-	8ee-	.
8E-J	8eee-J	.
=361	=361	=361
8DDL	8ddL	sf
8D	8ddd	.
8AAA	8a	.
8AAJ	8aaJ	.
8CC#L	8cc#L	sf
8C#	8ccc#	.
8EEn	8een	.
8EnJ	8eeenJ	.
=362	=362	=362
8DDL	8ddL	sf
8D	8ddd	.
8AAA	8a	.
8AAJ	8aaJ	.
8DDL	8ddL	sf
8D	8ddd	.
8FF	8ff	.
8FJ	8fffJ	.
=363	=363	=363
8EE-L	8ee-XL	sf
8E-	8eee-X	.
8BBB-	8b-	.
8BB-J	8bb-J	.
8DDL	8ddL	sf
8D	8ddd	.
8FF	8ff	.
8FJ	8fffJ	.
=364	=364	=364
8EE-L	8ee-L	sf
8E-	8eee-	.
8BBB-	8b-	.
8BB-J	8bb-J	.
8EE-L	8ee-L	sf
8E-	8eee-	.
8GG-	8gg-	.
8G-J	8ggg-J	.
!!LO:LB:g=original
=365	=365	=365
8FFL	8ffL	sf
8F	8fff	.
8CC	8cc	.
8CJ	8cccJ	.
8EE-L	8ee-L	sf
8E-	8eee-	.
8GG-	8gg-	.
8G-J	8ggg-J	.
=366	=366	=366
8DD-L	8dd-L	sf
8D-	8ddd-	.
8AAAn	8an	.
8AAnJ	8aanJ	.
8CCL	8ccL	sf
8C	8ccc	.
8EE-	8ee-	.
8E-J	8eee-J	.
=367	=367	=367
8GGG-L	8g-L	sf
8GG-	8gg-	.
8FFF	8f	.
8FFJ	8ffJ	.
8AAAL	8aL	sf
8AA	8aa	.
8EE-	8ee-	.
8E-J	8eee-J	.
=368	=368	=368
*	*^	*
(2BBB- 2BB-	(1ddn	8cc-L	p
.	.	8b-	.
.	.	8cc-	.
.	.	8b-J	.
2AA-/ 2A-/	.	8cc-L	.
.	.	8b-	.
.	.	8cc-	.
.	.	8b-J	.
=369	=369	=369	=369
2GG- 2G-	2ee-	8cc-L	.
.	.	8b-	.
.	.	8cc-	.
.	.	8b-J	.
2EE- 2E-)	2gg-)	8cc-L	.
.	.	8b-	.
.	.	8cc-	.
.	.	8b-J	.
!!LO:LB:g=original
=370	=370	=370	=370
(2DD 2D	(1bb-	8cc-L	.
.	.	8b-	.
.	.	8cc-	.
.	.	8b-J	.
2BBB- 2BB-	.	8cc-L	.
.	.	8b-	.
.	.	8cc-	.
.	.	8b-J	.
=371	=371	=371	=371
2EE- 2E-)	2gg-	8cc-L	.
.	.	8b-	.
.	.	8cc-	.
.	.	8b-J	.
4G- 4B-	2ee-)	8cc-L	.
.	.	8b-J	.
4Gn [4B-TT	.	[4b-TT	.
=372	=372	=372	=372
*^	*	*	*
!	!	!LO:TX:a:i:t=sempre legato	!	!
1B-_TTT	(4F	(1dd	1b-_TTT	.
.	4G	.	.	.
.	4A-	.	.	.
.	4F	.	.	.
=373	=373	=373	=373	=373
1B-_TTT	4G	2.ee-	1b-_TTT	.
.	4A-	.	.	.
.	4G	.	.	.
.	4E-)	4gg)	.	.
=374	=374	=374	=374	=374
1B-_TTT	(4D	(2.bb-	1b-_TTT	<
.	4E-	.	.	.
.	4F	.	.	.
.	4D	4aa-	.	.
!!LO:LB:g=original
=375	=375	=375	=375	=375
1B-_TTT	4E-	4gg	1b-_TTT	.
.	4F	4ff	.	.
.	4G	4ee-	.	.
.	4A-)	4dd)	.	.
=376	=376	=376	=376	=376
1B-_TTT	(2.G	(2.ee-	1b-_TTT	.
.	.	.	.	>
.	4A-	4dd	.	.
=377	=377	=377	=377	=377
1B-]TTT	2.G	4ff	1b-]TTT	.
.	.	2ee-	.	.
.	4F)	4dd)	.	.
*v	*v	*	*	*
*	*v	*v	*
=378	=378	=378
1F; 1B-; 1d;	1b-; 1ddt;	p
.	8qcc	p
=379	=379	=379
!	!	!LO:DY:t=sempre %s e dolce
4r	(8ddL	p
.	8ee-	.
*clefG2	*	*
(8b-L	8dd	.
8aJ	8ccJ	.
8gL	8b-L	.
8f	8a	.
8g	8b-	.
8aJ	8ccJ	.
=380	=380	=380
8b-L	8ddL	.
8cc	8ee-	.
8dd	8ff	.
8ee-J	8ggJ	.
8ffL	8aaL	.
8gg	8bb-	.
8aa	8ccc)	.
8bb-J)	8dddJ	.
*clefF4	*	*
!!LO:LB:g=original
=381	=381	=381
8r	(8eee-L	.
(8FFL	8fff	.
8GG	8eee-	.
8AAJ	8dddJ	.
8BB-L	8cccL	.
8C	8bb-	.
8D	8aa	.
8E-J	8ggJ	.
=382	=382	=382
8FL	8ffL	.
8G	8ee-	.
8A	8dd	.
8B-J	8ccJ	.
8cL	8b-L	.
8d	8a	.
8e-	8g	.
8dJ)	8fJ)	.
=383	=383	=383
4.B- 4.d	4.f 4.dd	pp
8B- 8d	8f 8dd	.
4B- 4d	4f 4dd	.
8r	8r	.
8BBBn 8BBn	8d 8f 8g	f
=384	=384	=384
4.CC 4.C	4.e- 4.g 4.ee-	.
8CC 8C	8e- 8g 8ee-	.
4CC 4C	4e- 4g 4ee-	.
8r	8r	.
!	!	!LO:DY:rj
8Bn 8d	8f 8g	pp
=385	=385	=385
4.c 4.e-	4.g/ 4.ee-/	.
8c 8e-	8g/ 8ee-/	.
4c 4e-	4g/ 4ee-/	.
8r	8r	.
8CC# 8C#	8en 8g 8a	f
=386	=386	=386
4.DD 4.D	4.f/ 4.a/ 4.ff/	.
8DD 8D	8f/ 8a/ 8ff/	.
4DD 4D	4f/ 4a/ 4ff/	.
8r	8r	.
*clefG2	*	*
!	!	!LO:DY:rj
8c# 8en	8g 8a	pp
!!LO:LB:g=original
=387	=387	=387
4.d 4.f	4.a 4.ff	.
8d 8f	8a 8ff	.
4d 4f	4a 4ff	.
8r	8r	.
*clefF4	*	*
8DD 8D	8f 8a- 8b-	f
=388	=388	=388
4.EE- 4.E-	4.g 4.b- 4.gg	.
8EE- 8E-	8g 8b- 8gg	.
4EE- 4E-	4g 4b- 4gg	.
4r	4r	.
=389	=389	=389
2r	2r	.
4r	4r	.
8r	8r	.
!	!	!LO:DY:cj
8EE- 8E-	8g 8ee-	rfz
=390	=390	=390
4.FFF 4.FF	4.a 4.cc 4.ee- 4.aa	.
8FFF 8FF	8a 8cc 8ee- 8aa	.
4FFF 4FF	4a 4cc 4ee- 4aa	.
4r	4r	.
=391	=391	=391
2r	1r	.
4r	.	.
!	!	!LO:DY:t=%s legato
8GGG-L	.	p
8FFFJ	.	.
=392	=392	=392
8GGG-L	4r	.
8FFF	.	.
8GGG-	8r	.
!	!	!LO:DY:rj
8FFFJ	8dd 8ff 8bb- 8ddd	p
8AAAL	4dd 4ff 4bb- 4ddd	.
8BBB-	.	.
8AAA	8dd' 8ff' 8bb-' 8eee-'L	.
8BBB-J	8dd' 8ff' 8bb-' 8ddd'J	.
!!LO:LB:g=original
=393	=393	=393
*^	*	*
2ryy	8GGG-L	4dd' 4ff' 4bb-' 4ddd'	.
.	8FFF	.	.
.	8GGG-	4b-' 4dd' 4ff' 4bb-'	.
.	8FFFJ	.	.
!	!	!	!LO:DY:rj
8GG-L	2BBB-	4d' 4f' 4b-' 4dd'	f
8FF	.	.	.
8GG-	.	4B-' 4d' 4f' 4b-'	.
8FFJ	.	.	.
*v	*v	*	*
=394	=394	=394
!	!	!LO:DY:cj
8GGG-L	4.ff 4.bb- 4.ddd 4.fff	p
8FFF	.	.
8GGG-	.	.
8FFFJ	8ff 8bb- 8ddd 8fff	.
8AAAL	4ff 4bb- 4ddd 4fff	.
8BBB-	.	.
8AAA	8ff' 8bb-' 8ddd' 8ggg'L	.
8BBB-J	8ff' 8bb-' 8ddd' 8fff'J	.
=395	=395	=395
*^	*	*
8GGG-L	2ryy	4ff' 4bb-' 4ddd' 4fff'	.
8FFF	.	.	.
8GGG-	.	4dd' 4ff' 4bb-' 4ddd'	.
8FFFJ	.	.	.
!	!	!	!LO:DY:cj
8GG-L	2BBB-	4f' 4b-' 4dd' 4ff'	f
8FF	.	.	.
8GG-	.	4d'\ 4f'\ 4b-'\ 4dd'\	.
8FFJ	.	.	.
=396	=396	=396	=396
!	!	!	!LO:DY:cj
8GGG-L	2ryy	4ddd' 4fff'	p
8FFF	.	.	.
8GGG-	.	4bb-' 4ddd'	.
8FFFJ	.	.	.
!	!	!	!LO:DY:cj
8GG-L	2BBB-	4dd 4ff	f
8FF	.	.	.
8GG-	.	4b-' 4dd'	.
8FFJ	.	.	.
=397	=397	=397	=397
!	!	!	!LO:DY:cj
8GGG-L	2ryy	4bb-' 4ddd'	p
8FFF	.	.	.
8GGG-	.	4ff' 4bb-'	.
8FFFJ	.	.	.
!	!	!	!LO:DY:cj
8GG-L	2BBB-	4b-' 4dd'	f
8FF	.	.	.
8GG-	.	4f' 4b-'	.
8FFJ	.	.	.
!!LO:LB:g=original
=398	=398	=398	=398
8GGG-L	2ryy	4ff' 4bb-'	p
8FFF	.	.	.
8GGG-	.	4dd' 4ff'	.
8FFFJ	.	.	.
!	!	!	!LO:DY:rj
8GG-L	2BBB-	4f' 4b-'	f
8FF	.	.	.
8GG-	.	4d' 4f'	.
8FFJ	.	.	.
=399	=399	=399	=399
!	!	!	!LO:DY:cj
8G-L	1BB-	1a 1ee-	p
8F	.	.	.
8G-	.	.	.
8FJ	.	.	.
8G-L	.	.	.
8F	.	.	.
8G-	.	.	.
8FJ	.	.	.
=400	=400	=400	=400
!	!	!	!LO:DY:cj
4r	2ryy	4dd' 4ff'	p
8GGG-L	.	4b-' 4dd'	.
8FFFJ	.	.	.
!	!	!	!LO:DY:cj
8GG-L	2BBB-	4d' 4f'	f
8FF	.	.	.
8GG-	.	4B-' 4d'	.
8FFJ	.	.	.
=401	=401	=401	=401
!	!	!	!LO:DY:cj
8GGG-L	2ryy	4b-' 4dd'	p
8FFF	.	.	.
8GGG-	.	4f' 4b-'	.
8FFFJ	.	.	.
!	!	!	!LO:DY:cj
8GG-L	2BBB-	4B-' 4d'	f
8FF	.	.	.
8GG-	.	4F' 4B-'	.
8FFJ	.	.	.
=402	=402	=402	=402
!	!	!	!LO:DY:cj
8GGG-L	2ryy	4f' 4b-'	p
8FFF	.	.	.
8GGG-	.	4d' 4f'	.
8FFFJ	.	.	.
*	*	*clefF4	*
!	!	!	!LO:DY:cj
8GG-L	2BBB-	4F' 4B-'	f
8FF	.	.	.
8GG-	.	4D' 4F'	.
8FFJ	.	.	.
*	*	*clefG2	*
!!LO:LB:g=original
=403	=403	=403	=403
8GG-L	1BBB-	1A 1e-	p
8FF	.	.	.
8GG-	.	.	.
8FFJ	.	.	.
8GG-L	.	.	.
8FF	.	.	.
8GG-	.	.	.
!	!	!	!LO:HP:t=sempre %s
8FFJ	.	.	>
*v	*v	*	*
=404	=404	=404
8AAL	4r	.
8BB-	.	.
8AA	8r	.
8BB-J	8A 8e- 8g-	.
8AAL	4A' 4e-' 4g-'	.
8BB-	.	.
8AA	4B-' 4d' 4f'	.
8BB-J	.	.
=405	=405	=405
*^	*	*
8GG-L	1BBB-	4r	.
8FF	.	.	.
8GG-	.	8r	.
8FFJ	.	8G- 8A 8c 8e-	.
8GG-L	.	4G-' 4A' 4c' 4e-'	.
8FF	.	.	.
8GG-	.	4F' 4B-' 4d'	.
8FFJ	.	.	.
*v	*v	*	*
=406	=406	=406
8AAAL	4r	.
8BBB-	.	.
8AAA	8r	.
8BBB-J	8G- 8A 8c 8e-	.
8AAAL	4G-' 4A' 4c' 4e-'	.
8BBB-	.	.
8AAA	4F' 4B-' 4d'	.
8BBB-J	.	.
*	*clefF4	*
!!LO:LB:g=original
=407	=407	=407
8GGG-L	4r	.
8FFF	.	.
8GGG-	8r	.
8FFFJ	8E- 8G- 8A 8c	.
8GGG-L	4E-' 4G-' 4A' 4c'	.
8FFF	.	.
*ped	*	*
8BBB- 8FF	4D' 4F' 4B-'	.
!	!	!LO:DY:t=sempre %s
8FFFJ	.	pp
=408	=408	=408
8BBB- 8FFL	4r	.
8FFF	.	.
8BBB- 8FF	8r	.
8FFFJ	8D 8F 8B- 8d	.
8BBB- 8FFL	4D' 4F' 4B-' 4d'	.
8FFF	.	.
8BBB- 8FF	4D' 4F' 4B-'	.
8FFFJ	.	.
=409	=409	=409
8FFL	4r	.
8BBB-	.	.
8FF	4D' 4F' 4B-' 4d'	.
8BBB-J	.	.
8FFL	2r	.
8BBB-	.	.
8FF 8BB-	.	.
8BBB-J	.	.
*	*clefG2	*
=410	=410	=410
8FF 8BB-L	2r	.
8BBB-	.	.
8FF 8BB-	.	.
8BBB-J	.	.
*	*8va	*
!	!	!LO:DY:cj
4BB- 4D 4F 4B-	4bb- 4ddd 4fff 4bbb-	ff
*	*X8va	*
4r	4r	.
=411	=411	=411
1BBB-; 1BB-;	1B-; 1b-;	.
==	==	==
*-	*-	*-
!!!RDF**kern: > = above
!!!RDF**kern: < = below
!!!RDF**dynam: > = dim.
!!!verovio: beamFrenchStyle
!!!LOR: Durand 1915, plates 9327/9328, Paul Dukas, ed.
!!!PED: Dukas, Paul
!!!URL-github: https://github.com/craigsapp/beethoven-piano-sonatas/blob/main/kern/sonata29-1.krn
!!!URL-vhv: https://verovio.humdrum.org/?file=beethoven/sonatas/sonata29-1.krn
!!!URL-pdf: https://github.com/craigsapp/beethoven-piano-sonatas/blob/master/reference-edition/sonata29-1.pdf
!!!ENC: Craig Stuart Sapp
!!!END: 2005/08/04
!!!EED: Craig Stuart Sapp
!!!EEV: 2023/03/21
